(1001)
(T1  D=1.587 CR=0. - ZMIN=-0.508 - FLAT END MILL)
G0 G90 G94 G17
G21
G53 G0 Z0.

(ADAPTIVE1)
M5
M9
T1
S16500 M3
G4 P4.
G55
M8
G0 X-2.217 Y52.794
Z15.
Z5.
Z-0.191
G1 Z-0.349 F356.
X-2.211 Y52.798 Z-0.398
X-2.192 Y52.811 Z-0.443
X-2.163 Y52.831 Z-0.478
X-2.127 Y52.856 Z-0.5
X-2.086 Y52.884 Z-0.508
G3 X-0.896 Y53.909 I-4.137 J6.004
G1 X-0.809 Y54.009
X-0.761 Y54.044
X-0.645 Y54.139
X-0.564 Y54.265
X-0.5 Y54.401
X-0.445 Y54.558
X-0.386 Y54.776
X-0.326 Y55.105
X-0.293 Y55.439
X-0.312 Y55.599
X-0.397 Y55.736
X-0.533 Y55.823
X-0.577 Y55.831
X-0.622 Y55.826
X-0.664 Y55.809
X-0.699 Y55.781
X-0.725 Y55.744
X-0.739 Y55.701
X-0.829 Y55.195
X-0.935 Y54.609
X-1.007 Y54.203
G3 X-0.761 Y54.044 I0.156 J-0.028
G1 X-0.732 Y54.066
X-0.715 Y54.076
X-0.43 Y54.203
X-0.296 Y54.271
X-0.182 Y54.368
X-0.086 Y54.484
X-0.006 Y54.61
X0.062 Y54.745
X0.118 Y54.884
X0.16 Y55.028
X0.189 Y55.176
X0.2 Y55.325
X0.196 Y55.387
X0.164 Y55.511
X0.09 Y55.615
X-0.016 Y55.686
X-0.14 Y55.715
X-0.272 Y55.739
X-0.403 Y55.775
X-0.533 Y55.823
G3 X-0.741 Y55.662 I-0.05 J-0.151
G1 X-0.708 Y55.189
X-0.682 Y54.824
X-0.648 Y54.339
G3 X-0.43 Y54.203 I0.158 J0.011
G1 X-0.312 Y54.256
X-0.272 Y54.265
X-0.14 Y54.286
X-0.101 Y54.287
X0.049 Y54.301
X0.184 Y54.366
X0.302 Y54.458
X0.404 Y54.568
X0.49 Y54.691
X0.56 Y54.823
X0.613 Y54.964
X0.646 Y55.11
X0.659 Y55.26
X0.647 Y55.409
X0.644 Y55.421
X0.572 Y55.568
X0.444 Y55.67
X0.284 Y55.706
X0.122
X-0.009 Y55.709
X-0.14 Y55.715
X-0.183 Y55.71
X-0.222 Y55.694
X-0.256 Y55.667
X-0.281 Y55.633
X-0.297 Y55.593
X-0.301 Y55.551
X-0.282 Y55.023
X-0.28 Y54.981
X-0.26 Y54.44
X-0.251 Y54.392
X-0.228 Y54.35
X-0.193 Y54.316
X-0.149 Y54.294
X-0.101 Y54.287
X-0.009 Y54.291
X0.122 Y54.294
X0.326
X0.476 Y54.301
X0.615 Y54.357
X0.739 Y54.441
X0.846 Y54.546
X0.936 Y54.666
X1.009 Y54.797
X1.063 Y54.937
X1.099 Y55.083
X1.111 Y55.232
X1.103 Y55.382
X1.094 Y55.419
X1.023 Y55.567
X0.894 Y55.67
X0.734 Y55.706
X0.284
X0.235 Y55.697
X0.191 Y55.673
X0.158 Y55.636
X0.137 Y55.591
X0.131 Y55.541
X0.151 Y55.006
X0.152 Y54.994
X0.173 Y54.446
X0.182 Y54.4
X0.204 Y54.358
X0.238 Y54.324
X0.28 Y54.302
X0.326 Y54.294
X0.78
X0.929 Y54.301
X1.07 Y54.355
X1.194 Y54.438
X1.302 Y54.542
X1.392 Y54.662
X1.464 Y54.794
X1.518 Y54.934
X1.553 Y55.08
X1.564 Y55.229
X1.556 Y55.379
X1.547 Y55.419
X1.475 Y55.567
X1.346 Y55.67
X1.186 Y55.706
X0.734
X0.685 Y55.697
X0.641 Y55.672
X0.607 Y55.636
X0.586 Y55.59
X0.58 Y55.541
X0.603 Y55.007
Y54.993
X0.627 Y54.446
X0.636 Y54.399
X0.658 Y54.358
X0.691 Y54.324
X0.733 Y54.302
X0.78 Y54.294
X1.246
X1.396 Y54.301
X1.535 Y54.357
X1.659 Y54.442
X1.765 Y54.548
X1.853 Y54.67
X1.923 Y54.803
X1.975 Y54.943
X2.008 Y55.089
X2.018 Y55.239
X2.008 Y55.389
X1.999 Y55.424
X1.926 Y55.57
X1.798 Y55.67
X1.639 Y55.706
X1.186
X1.144 Y55.699
X1.106 Y55.682
X1.074 Y55.655
X1.05 Y55.62
X1.036 Y55.581
X1.033 Y55.539
X1.062 Y55.007
X1.063 Y54.993
X1.093 Y54.444
X1.103 Y54.398
X1.125 Y54.357
X1.159 Y54.324
X1.2 Y54.302
X1.246 Y54.294
X1.7
X1.849 Y54.301
X1.989 Y54.357
X2.112 Y54.442
X2.218 Y54.548
X2.306 Y54.67
X2.377 Y54.802
X2.429 Y54.943
X2.462 Y55.089
X2.472 Y55.239
X2.461 Y55.388
X2.453 Y55.423
X2.38 Y55.569
X2.252 Y55.67
X2.093 Y55.706
X1.639
X1.598 Y55.699
X1.56 Y55.682
X1.528 Y55.655
X1.504 Y55.62
X1.489 Y55.581
X1.486 Y55.539
X1.516 Y55.007
Y54.993
X1.547 Y54.444
X1.556 Y54.398
X1.579 Y54.357
X1.612 Y54.324
X1.654 Y54.302
X1.7 Y54.294
X2.134
X2.283 Y54.301
X2.425 Y54.352
X2.551 Y54.433
X2.659 Y54.537
X2.75 Y54.656
X2.822 Y54.788
X2.877 Y54.928
X2.912 Y55.073
X2.925 Y55.223
X2.917 Y55.373
X2.907 Y55.416
X2.86 Y55.531
X2.777 Y55.625
X2.668 Y55.685
X2.545 Y55.706
X2.093
X2.044 Y55.697
X2.001 Y55.673
X1.967 Y55.636
X1.946 Y55.591
X1.94 Y55.542
X1.96 Y55.006
Y54.994
X1.981 Y54.446
X1.989 Y54.4
X2.012 Y54.358
X2.045 Y54.325
X2.087 Y54.302
X2.134 Y54.294
X2.593
X2.743 Y54.301
X2.883 Y54.353
X3.009 Y54.436
X3.116 Y54.54
X3.206 Y54.661
X3.278 Y54.792
X3.332 Y54.932
X3.366 Y55.078
X3.379 Y55.228
X3.37 Y55.378
X3.361 Y55.418
X3.289 Y55.566
X3.16 Y55.669
X3. Y55.706
X2.545
X2.496 Y55.697
X2.453 Y55.672
X2.419 Y55.636
X2.398 Y55.59
X2.392 Y55.541
X2.416 Y55.007
Y54.993
X2.44 Y54.445
X2.449 Y54.399
X2.471 Y54.358
X2.505 Y54.324
X2.547 Y54.302
X2.593 Y54.294
X3.054
X3.203 Y54.301
X3.343 Y54.355
X3.468 Y54.439
X3.574 Y54.545
X3.663 Y54.666
X3.734 Y54.798
X3.787 Y54.938
X3.821 Y55.084
X3.832 Y55.234
X3.822 Y55.383
X3.813 Y55.421
X3.741 Y55.568
X3.613 Y55.67
X3.453 Y55.706
X3.
X2.95 Y55.697
X2.907 Y55.672
X2.873 Y55.635
X2.852 Y55.59
X2.847 Y55.54
X2.873 Y55.007
X2.874 Y54.993
X2.901 Y54.445
X2.91 Y54.398
X2.932 Y54.357
X2.966 Y54.324
X3.007 Y54.302
X3.054 Y54.294
X3.513
X3.663 Y54.301
X3.802 Y54.357
X3.926 Y54.442
X4.032 Y54.548
X4.12 Y54.669
X4.19 Y54.802
X4.243 Y54.942
X4.275 Y55.089
X4.285 Y55.238
X4.275 Y55.388
X4.266 Y55.423
X4.194 Y55.569
X4.066 Y55.67
X3.907 Y55.706
X3.453
X3.411 Y55.699
X3.373 Y55.682
X3.341 Y55.655
X3.317 Y55.62
X3.303 Y55.581
X3.3 Y55.539
X3.329 Y55.007
X3.33 Y54.993
X3.36 Y54.444
X3.369 Y54.398
X3.392 Y54.357
X3.425 Y54.324
X3.467 Y54.302
X3.513 Y54.294
X3.974
X4.123 Y54.301
X4.262 Y54.359
X4.385 Y54.445
X4.49 Y54.552
X4.577 Y54.674
X4.647 Y54.807
X4.698 Y54.948
X4.73 Y55.094
X4.739 Y55.244
X4.728 Y55.393
X4.72 Y55.426
X4.647 Y55.571
X4.519 Y55.671
X4.361 Y55.706
X3.907
X3.865 Y55.699
X3.827 Y55.681
X3.795 Y55.654
X3.771 Y55.62
X3.757 Y55.58
X3.754 Y55.538
X3.786 Y55.007
X3.787 Y54.993
X3.821 Y54.443
X3.83 Y54.397
X3.853 Y54.356
X3.886 Y54.324
X3.928 Y54.302
X3.974 Y54.294
X4.4
X4.55 Y54.301
X4.692 Y54.352
X4.818 Y54.433
X4.926 Y54.536
X5.017 Y54.656
X5.09 Y54.787
X5.144 Y54.927
X5.18 Y55.072
X5.192 Y55.222
X5.184 Y55.372
X5.175 Y55.415
X5.128 Y55.531
X5.045 Y55.624
X4.936 Y55.685
X4.813 Y55.706
X4.361
X4.312 Y55.697
X4.268 Y55.673
X4.235 Y55.636
X4.214 Y55.591
X4.208 Y55.542
X4.227 Y55.006
Y54.994
X4.247 Y54.447
X4.256 Y54.4
X4.278 Y54.358
X4.312 Y54.325
X4.354 Y54.302
X4.4 Y54.294
X4.854
X5.004 Y54.301
X5.145 Y54.352
X5.271 Y54.433
X5.38 Y54.536
X5.47 Y54.656
X5.543 Y54.787
X5.597 Y54.927
X5.633 Y55.073
X5.646 Y55.222
X5.638 Y55.372
X5.629 Y55.416
X5.582 Y55.531
X5.499 Y55.625
X5.39 Y55.685
X5.267 Y55.706
X4.813
X4.764 Y55.697
X4.721 Y55.673
X4.687 Y55.636
X4.666 Y55.591
X4.66 Y55.542
X4.68 Y55.006
Y54.994
X4.701 Y54.446
X4.71 Y54.4
X4.732 Y54.358
X4.765 Y54.325
X4.807 Y54.302
X4.854 Y54.294
X5.32
X5.47 Y54.301
X5.61 Y54.355
X5.735 Y54.439
X5.842 Y54.544
X5.93 Y54.665
X6.001 Y54.797
X6.055 Y54.937
X6.088 Y55.084
X6.101 Y55.233
X6.091 Y55.383
X6.082 Y55.42
X6.01 Y55.567
X5.882 Y55.67
X5.721 Y55.706
X5.267
X5.218 Y55.697
X5.174 Y55.672
X5.14 Y55.635
X5.119 Y55.59
X5.114 Y55.54
X5.14 Y55.007
X5.141 Y54.993
X5.167 Y54.445
X5.177 Y54.399
X5.199 Y54.357
X5.233 Y54.324
X5.274 Y54.302
X5.32 Y54.294
X5.774
X5.924 Y54.301
X6.064 Y54.355
X6.188 Y54.439
X6.295 Y54.544
X6.384 Y54.665
X6.455 Y54.797
X6.509 Y54.937
X6.543 Y55.083
X6.553 Y55.233
X6.544 Y55.382
X6.535 Y55.421
X6.463 Y55.568
X6.334 Y55.67
X6.174 Y55.706
X5.721
X5.672 Y55.697
X5.629 Y55.672
X5.595 Y55.635
X5.574 Y55.59
X5.568 Y55.54
X5.594 Y55.007
X5.595 Y54.993
X5.621 Y54.445
X5.63 Y54.399
X5.652 Y54.357
X5.686 Y54.324
X5.728 Y54.302
X5.774 Y54.294
X6.208
X6.358 Y54.301
X6.5 Y54.35
X6.626 Y54.43
X6.736 Y54.533
X6.827 Y54.652
X6.901 Y54.782
X6.956 Y54.922
X6.992 Y55.067
X7.006 Y55.217
X6.999 Y55.367
X6.989 Y55.413
X6.942 Y55.53
X6.86 Y55.624
X6.75 Y55.685
X6.627 Y55.706
X6.174
X6.126 Y55.697
X6.082 Y55.673
X6.049 Y55.637
X6.028 Y55.592
X6.021 Y55.543
X6.038 Y55.006
Y54.994
X6.055 Y54.448
X6.063 Y54.401
X6.085 Y54.359
X6.119 Y54.325
X6.161 Y54.303
X6.208 Y54.294
X6.667
X6.817 Y54.301
X6.958 Y54.351
X7.085 Y54.433
X7.193 Y54.536
X7.284 Y54.656
X7.356 Y54.787
X7.411 Y54.927
X7.446 Y55.073
X7.46 Y55.222
X7.452 Y55.372
X7.442 Y55.415
X7.395 Y55.531
X7.313 Y55.625
X7.203 Y55.685
X7.08 Y55.706
X6.627
X6.578 Y55.697
X6.534 Y55.673
X6.5 Y55.636
X6.479 Y55.591
X6.474 Y55.542
X6.493 Y55.006
X6.494 Y54.994
X6.514 Y54.446
X6.523 Y54.4
X6.545 Y54.358
X6.579 Y54.325
X6.621 Y54.302
X6.667 Y54.294
X7.128
X7.278 Y54.301
X7.418 Y54.354
X7.543 Y54.436
X7.651 Y54.541
X7.741 Y54.661
X7.813 Y54.793
X7.867 Y54.933
X7.901 Y55.079
X7.914 Y55.228
X7.905 Y55.378
X7.896 Y55.418
X7.824 Y55.566
X7.695 Y55.669
X7.535 Y55.706
X7.08
X7.031 Y55.697
X6.988 Y55.672
X6.954 Y55.636
X6.933 Y55.59
X6.927 Y55.541
X6.951 Y55.007
Y54.993
X6.975 Y54.446
X6.984 Y54.399
X7.006 Y54.358
X7.04 Y54.324
X7.082 Y54.302
X7.128 Y54.294
X7.587
X7.737 Y54.301
X7.877 Y54.355
X8.002 Y54.439
X8.109 Y54.544
X8.197 Y54.665
X8.269 Y54.797
X8.322 Y54.937
X8.356 Y55.083
X8.367 Y55.233
X8.357 Y55.383
X8.348 Y55.421
X8.276 Y55.568
X8.148 Y55.67
X7.988 Y55.706
X7.535
X7.485 Y55.697
X7.442 Y55.672
X7.408 Y55.635
X7.387 Y55.59
X7.382 Y55.54
X7.407 Y55.007
X7.408 Y54.993
X7.434 Y54.445
X7.443 Y54.399
X7.466 Y54.357
X7.499 Y54.324
X7.541 Y54.302
X7.587 Y54.294
X8.048
X8.198 Y54.301
X8.337 Y54.357
X8.461 Y54.442
X8.567 Y54.548
X8.655 Y54.669
X8.725 Y54.802
X8.777 Y54.942
X8.81 Y55.089
X8.82 Y55.238
X8.81 Y55.388
X8.801 Y55.423
X8.729 Y55.57
X8.601 Y55.67
X8.441 Y55.706
X7.988
X7.946 Y55.699
X7.908 Y55.682
X7.876 Y55.655
X7.852 Y55.62
X7.838 Y55.581
X7.835 Y55.539
X7.864 Y55.007
X7.865 Y54.993
X7.895 Y54.444
X7.904 Y54.398
X7.927 Y54.357
X7.96 Y54.324
X8.002 Y54.302
X8.048 Y54.294
X8.475
X8.625 Y54.301
X8.767 Y54.35
X8.893 Y54.43
X9.003 Y54.533
X9.094 Y54.651
X9.168 Y54.782
X9.223 Y54.922
X9.259 Y55.067
X9.273 Y55.217
X9.266 Y55.366
X9.256 Y55.413
X9.209 Y55.529
X9.127 Y55.624
X9.017 Y55.685
X8.894 Y55.706
X8.441
X8.393 Y55.697
X8.349 Y55.673
X8.316 Y55.637
X8.294 Y55.592
X8.288 Y55.543
X8.305 Y55.006
Y54.994
X8.322 Y54.448
X8.33 Y54.401
X8.352 Y54.359
X8.386 Y54.325
X8.428 Y54.303
X8.475 Y54.294
X8.928
X9.078 Y54.301
X9.22 Y54.35
X9.347 Y54.43
X9.456 Y54.533
X9.547 Y54.652
X9.621 Y54.783
X9.676 Y54.922
X9.712 Y55.068
X9.727 Y55.217
X9.719 Y55.367
X9.709 Y55.414
X9.663 Y55.53
X9.58 Y55.624
X9.471 Y55.685
X9.347 Y55.706
X8.894
X8.845 Y55.697
X8.802 Y55.673
X8.768 Y55.637
X8.747 Y55.592
X8.74 Y55.543
X8.757 Y55.006
X8.758 Y54.994
X8.775 Y54.447
X8.784 Y54.401
X8.806 Y54.358
X8.839 Y54.325
X8.881 Y54.303
X8.928 Y54.294
X9.395
X9.545 Y54.301
X9.685 Y54.354
X9.81 Y54.436
X9.918 Y54.541
X10.008 Y54.661
X10.079 Y54.793
X10.133 Y54.933
X10.168 Y55.079
X10.181 Y55.228
X10.171 Y55.378
X10.162 Y55.418
X10.091 Y55.566
X9.962 Y55.669
X9.801 Y55.706
X9.347
X9.298 Y55.697
X9.254 Y55.672
X9.221 Y55.636
X9.2 Y55.59
X9.194 Y55.541
X9.217 Y55.007
X9.218 Y54.993
X9.242 Y54.445
X9.251 Y54.399
X9.273 Y54.358
X9.307 Y54.324
X9.348 Y54.302
X9.395 Y54.294
X9.848
X9.998 Y54.301
X10.139 Y54.354
X10.264 Y54.436
X10.371 Y54.541
X10.461 Y54.661
X10.533 Y54.793
X10.587 Y54.933
X10.622 Y55.079
X10.633 Y55.228
X10.624 Y55.378
X10.615 Y55.419
X10.543 Y55.567
X10.415 Y55.67
X10.254 Y55.706
X9.801
X9.752 Y55.697
X9.709 Y55.672
X9.675 Y55.636
X9.654 Y55.59
X9.648 Y55.541
X9.671 Y55.007
X9.672 Y54.993
X9.695 Y54.446
X9.704 Y54.399
X9.726 Y54.358
X9.76 Y54.324
X9.802 Y54.302
X9.848 Y54.294
X10.315
X10.465 Y54.301
X10.604 Y54.357
X10.728 Y54.442
X10.834 Y54.548
X10.922 Y54.669
X10.992 Y54.802
X11.044 Y54.943
X11.077 Y55.089
X11.087 Y55.239
X11.076 Y55.388
X11.068 Y55.424
X10.995 Y55.57
X10.867 Y55.67
X10.708 Y55.706
X10.254
X10.213 Y55.699
X10.174 Y55.682
X10.142 Y55.655
X10.118 Y55.62
X10.104 Y55.581
X10.101 Y55.539
X10.131 Y55.007
Y54.993
X10.162 Y54.444
X10.171 Y54.398
X10.194 Y54.357
X10.227 Y54.324
X10.269 Y54.302
X10.315 Y54.294
X10.768
X10.918 Y54.301
X11.057 Y54.357
X11.181 Y54.442
X11.287 Y54.548
X11.375 Y54.669
X11.445 Y54.802
X11.498 Y54.943
X11.531 Y55.089
X11.54 Y55.239
X11.53 Y55.388
X11.521 Y55.423
X11.449 Y55.569
X11.321 Y55.67
X11.162 Y55.706
X10.708
X10.666 Y55.699
X10.628 Y55.682
X10.596 Y55.655
X10.572 Y55.62
X10.558 Y55.581
X10.555 Y55.539
X10.584 Y55.007
X10.585 Y54.993
X10.615 Y54.444
X10.625 Y54.398
X10.647 Y54.357
X10.681 Y54.324
X10.722 Y54.302
X10.768 Y54.294
X11.202
X11.352 Y54.301
X11.493 Y54.352
X11.619 Y54.433
X11.728 Y54.537
X11.818 Y54.656
X11.891 Y54.788
X11.945 Y54.927
X11.981 Y55.073
X11.993 Y55.223
X11.985 Y55.372
X11.976 Y55.416
X11.929 Y55.531
X11.846 Y55.625
X11.737 Y55.685
X11.614 Y55.706
X11.162
X11.113 Y55.697
X11.069 Y55.673
X11.035 Y55.636
X11.014 Y55.591
X11.008 Y55.542
X11.028 Y55.006
X11.029 Y54.994
X11.049 Y54.446
X11.058 Y54.4
X11.08 Y54.358
X11.114 Y54.325
X11.156 Y54.302
X11.202 Y54.294
X11.662
X11.811 Y54.301
X11.952 Y54.353
X12.077 Y54.436
X12.185 Y54.54
X12.275 Y54.661
X12.346 Y54.792
X12.4 Y54.932
X12.435 Y55.078
X12.448 Y55.228
X12.439 Y55.377
X12.43 Y55.418
X12.358 Y55.566
X12.229 Y55.669
X12.068 Y55.706
X11.614
X11.565 Y55.697
X11.521 Y55.672
X11.488 Y55.636
X11.467 Y55.59
X11.461 Y55.541
X11.484 Y55.007
X11.485 Y54.993
X11.509 Y54.446
X11.518 Y54.399
X11.54 Y54.358
X11.573 Y54.324
X11.615 Y54.302
X11.662 Y54.294
X12.122
X12.272 Y54.301
X12.412 Y54.355
X12.536 Y54.439
X12.643 Y54.545
X12.732 Y54.666
X12.803 Y54.798
X12.856 Y54.938
X12.89 Y55.084
X12.9 Y55.234
X12.891 Y55.383
X12.882 Y55.421
X12.81 Y55.568
X12.681 Y55.67
X12.521 Y55.706
X12.068
X12.019 Y55.697
X11.975 Y55.672
X11.941 Y55.635
X11.921 Y55.59
X11.915 Y55.54
X11.942 Y55.007
Y54.993
X11.969 Y54.445
X11.979 Y54.398
X12.001 Y54.357
X12.034 Y54.324
X12.076 Y54.302
X12.122 Y54.294
X12.582
X12.731 Y54.301
X12.871 Y54.357
X12.994 Y54.442
X13.101 Y54.548
X13.189 Y54.669
X13.259 Y54.802
X13.311 Y54.942
X13.344 Y55.089
X13.354 Y55.238
X13.344 Y55.388
X13.335 Y55.423
X13.263 Y55.569
X13.134 Y55.67
X12.975 Y55.706
X12.521
X12.48 Y55.699
X12.442 Y55.682
X12.41 Y55.655
X12.386 Y55.62
X12.372 Y55.581
X12.368 Y55.539
X12.398 Y55.007
Y54.993
X12.429 Y54.444
X12.438 Y54.398
X12.461 Y54.357
X12.494 Y54.324
X12.536 Y54.302
X12.582 Y54.294
X13.042
X13.192 Y54.301
X13.331 Y54.359
X13.454 Y54.445
X13.559 Y54.552
X13.646 Y54.674
X13.715 Y54.807
X13.767 Y54.948
X13.799 Y55.094
X13.808 Y55.244
X13.797 Y55.393
X13.789 Y55.426
X13.716 Y55.571
X13.588 Y55.671
X13.429 Y55.706
X12.975
X12.934 Y55.699
X12.895 Y55.681
X12.863 Y55.654
X12.839 Y55.62
X12.825 Y55.58
X12.822 Y55.538
X12.855 Y55.007
X12.856 Y54.993
X12.889 Y54.443
X12.899 Y54.397
X12.922 Y54.356
X12.955 Y54.324
X12.996 Y54.302
X13.042 Y54.294
X13.469
X13.619 Y54.301
X13.76 Y54.352
X13.886 Y54.433
X13.995 Y54.536
X14.086 Y54.656
X14.158 Y54.787
X14.213 Y54.927
X14.248 Y55.072
X14.261 Y55.222
X14.253 Y55.372
X14.244 Y55.415
X14.197 Y55.531
X14.114 Y55.624
X14.005 Y55.685
X13.882 Y55.706
X13.429
X13.381 Y55.697
X13.337 Y55.673
X13.303 Y55.636
X13.282 Y55.591
X13.276 Y55.542
X13.296 Y55.006
Y54.994
X13.316 Y54.447
X13.325 Y54.4
X13.347 Y54.358
X13.381 Y54.325
X13.422 Y54.302
X13.469 Y54.294
X13.923
X14.072 Y54.301
X14.214 Y54.352
X14.34 Y54.433
X14.448 Y54.536
X14.539 Y54.656
X14.611 Y54.787
X14.666 Y54.927
X14.701 Y55.073
X14.715 Y55.222
X14.707 Y55.372
X14.697 Y55.416
X14.65 Y55.531
X14.568 Y55.625
X14.459 Y55.685
X14.336 Y55.706
X13.882
X13.833 Y55.697
X13.79 Y55.673
X13.756 Y55.636
X13.735 Y55.591
X13.729 Y55.542
X13.749 Y55.006
Y54.994
X13.769 Y54.446
X13.778 Y54.4
X13.8 Y54.358
X13.834 Y54.325
X13.876 Y54.302
X13.923 Y54.294
X14.389
X14.539 Y54.301
X14.679 Y54.355
X14.803 Y54.439
X14.91 Y54.544
X14.999 Y54.665
X15.07 Y54.797
X15.123 Y54.937
X15.157 Y55.084
X15.169 Y55.233
X15.159 Y55.383
X15.151 Y55.42
X15.079 Y55.567
X14.95 Y55.67
X14.79 Y55.706
X14.336
X14.286 Y55.697
X14.243 Y55.672
X14.209 Y55.635
X14.188 Y55.59
X14.183 Y55.54
X14.209 Y55.007
Y54.993
X14.236 Y54.445
X14.245 Y54.399
X14.268 Y54.357
X14.301 Y54.324
X14.343 Y54.302
X14.389 Y54.294
X14.843
X14.992 Y54.301
X15.132 Y54.355
X15.257 Y54.439
X15.364 Y54.544
X15.453 Y54.665
X15.524 Y54.797
X15.577 Y54.937
X15.611 Y55.083
X15.622 Y55.233
X15.613 Y55.382
X15.604 Y55.421
X15.532 Y55.568
X15.403 Y55.67
X15.243 Y55.706
X14.79
X14.741 Y55.697
X14.697 Y55.672
X14.663 Y55.635
X14.643 Y55.59
X14.637 Y55.54
X14.663 Y55.007
Y54.993
X14.69 Y54.445
X14.699 Y54.399
X14.721 Y54.357
X14.755 Y54.324
X14.796 Y54.302
X14.843 Y54.294
X15.277
X15.426 Y54.301
X15.568 Y54.35
X15.695 Y54.43
X15.805 Y54.533
X15.896 Y54.652
X15.97 Y54.782
X16.025 Y54.922
X16.061 Y55.067
X16.074 Y55.217
X16.068 Y55.366
X16.058 Y55.413
X16.011 Y55.53
X15.928 Y55.624
X15.819 Y55.685
X15.695 Y55.706
X15.243
X15.194 Y55.697
X15.151 Y55.673
X15.117 Y55.637
X15.096 Y55.592
X15.09 Y55.543
X15.106 Y55.006
X15.107 Y54.994
X15.123 Y54.448
X15.132 Y54.401
X15.154 Y54.359
X15.188 Y54.325
X15.23 Y54.303
X15.277 Y54.294
X15.736
X15.886 Y54.301
X16.027 Y54.351
X16.153 Y54.433
X16.262 Y54.536
X16.352 Y54.656
X16.425 Y54.787
X16.48 Y54.927
X16.515 Y55.073
X16.529 Y55.222
X16.521 Y55.372
X16.511 Y55.415
X16.464 Y55.531
X16.381 Y55.625
X16.272 Y55.685
X16.149 Y55.706
X15.695
X15.646 Y55.697
X15.603 Y55.673
X15.569 Y55.636
X15.548 Y55.591
X15.542 Y55.542
X15.562 Y55.006
X15.563 Y54.994
X15.583 Y54.447
X15.592 Y54.4
X15.614 Y54.358
X15.647 Y54.325
X15.689 Y54.302
X15.736 Y54.294
X16.197
X16.346 Y54.301
X16.487 Y54.354
X16.612 Y54.436
X16.72 Y54.541
X16.809 Y54.661
X16.881 Y54.793
X16.935 Y54.933
X16.97 Y55.079
X16.983 Y55.228
X16.974 Y55.378
X16.964 Y55.418
X16.893 Y55.566
X16.764 Y55.669
X16.603 Y55.706
X16.149
X16.1 Y55.697
X16.057 Y55.672
X16.023 Y55.636
X16.002 Y55.59
X15.996 Y55.541
X16.019 Y55.007
X16.02 Y54.993
X16.044 Y54.446
X16.053 Y54.399
X16.075 Y54.358
X16.108 Y54.324
X16.15 Y54.302
X16.197 Y54.294
X16.656
X16.806 Y54.301
X16.946 Y54.355
X17.07 Y54.439
X17.177 Y54.544
X17.266 Y54.665
X17.337 Y54.797
X17.391 Y54.937
X17.424 Y55.083
X17.435 Y55.233
X17.426 Y55.382
X17.417 Y55.421
X17.345 Y55.568
X17.216 Y55.67
X17.056 Y55.706
X16.603
X16.554 Y55.697
X16.51 Y55.672
X16.476 Y55.635
X16.456 Y55.59
X16.45 Y55.54
X16.476 Y55.007
X16.477 Y54.993
X16.503 Y54.445
X16.512 Y54.399
X16.534 Y54.357
X16.568 Y54.324
X16.61 Y54.302
X16.656 Y54.294
X17.117
X17.266 Y54.301
X17.406 Y54.357
X17.529 Y54.442
X17.636 Y54.548
X17.724 Y54.669
X17.794 Y54.802
X17.846 Y54.942
X17.879 Y55.089
X17.889 Y55.238
X17.879 Y55.388
X17.87 Y55.423
X17.797 Y55.57
X17.669 Y55.67
X17.51 Y55.706
X17.056
X17.015 Y55.699
X16.977 Y55.682
X16.945 Y55.655
X16.921 Y55.62
X16.907 Y55.581
X16.903 Y55.539
X16.933 Y55.007
Y54.993
X16.964 Y54.444
X16.973 Y54.398
X16.996 Y54.357
X17.029 Y54.324
X17.071 Y54.302
X17.117 Y54.294
X17.543
X17.693 Y54.301
X17.835 Y54.35
X17.962 Y54.43
X18.071 Y54.533
X18.163 Y54.651
X18.237 Y54.782
X18.292 Y54.922
X18.328 Y55.067
X18.341 Y55.216
X18.334 Y55.366
X18.325 Y55.413
X18.278 Y55.529
X18.195 Y55.624
X18.086 Y55.685
X17.962 Y55.706
X17.51
X17.461 Y55.697
X17.418 Y55.673
X17.384 Y55.637
X17.363 Y55.592
X17.357 Y55.543
X17.373 Y55.006
X17.374 Y54.994
X17.39 Y54.448
X17.399 Y54.401
X17.421 Y54.359
X17.455 Y54.325
X17.497 Y54.303
X17.543 Y54.294
X17.997
X18.147 Y54.301
X18.289 Y54.35
X18.415 Y54.43
X18.525 Y54.533
X18.616 Y54.652
X18.689 Y54.783
X18.745 Y54.922
X18.781 Y55.068
X18.795 Y55.217
X18.788 Y55.367
X18.778 Y55.414
X18.731 Y55.53
X18.649 Y55.624
X18.539 Y55.685
X18.416 Y55.706
X17.962
X17.914 Y55.697
X17.87 Y55.673
X17.836 Y55.637
X17.815 Y55.592
X17.809 Y55.543
X17.826 Y55.006
Y54.994
X17.844 Y54.447
X17.852 Y54.401
X17.874 Y54.358
X17.908 Y54.325
X17.95 Y54.303
X17.997 Y54.294
X18.463
X18.613 Y54.301
X18.754 Y54.354
X18.879 Y54.436
X18.987 Y54.541
X19.076 Y54.661
X19.148 Y54.793
X19.202 Y54.933
X19.236 Y55.079
X19.249 Y55.228
X19.24 Y55.378
X19.231 Y55.418
X19.16 Y55.566
X19.031 Y55.669
X18.87 Y55.706
X18.416
X18.367 Y55.697
X18.323 Y55.672
X18.289 Y55.636
X18.268 Y55.59
X18.263 Y55.541
X18.286 Y55.007
X18.287 Y54.993
X18.31 Y54.445
X18.319 Y54.399
X18.342 Y54.358
X18.375 Y54.324
X18.417 Y54.302
X18.463 Y54.294
X18.917
X19.067 Y54.301
X19.207 Y54.354
X19.332 Y54.436
X19.44 Y54.541
X19.53 Y54.661
X19.602 Y54.793
X19.656 Y54.933
X19.69 Y55.079
X19.702 Y55.228
X19.693 Y55.378
X19.684 Y55.419
X19.612 Y55.567
X19.483 Y55.67
X19.323 Y55.706
X18.87
X18.821 Y55.697
X18.777 Y55.672
X18.743 Y55.636
X18.723 Y55.59
X18.717 Y55.541
X18.74 Y55.007
Y54.993
X18.764 Y54.446
X18.773 Y54.399
X18.795 Y54.358
X18.829 Y54.324
X18.87 Y54.302
X18.917 Y54.294
X19.383
X19.533 Y54.301
X19.673 Y54.357
X19.796 Y54.442
X19.902 Y54.548
X19.99 Y54.669
X20.06 Y54.802
X20.113 Y54.943
X20.145 Y55.089
X20.155 Y55.239
X20.145 Y55.388
X20.136 Y55.424
X20.064 Y55.57
X19.935 Y55.67
X19.776 Y55.706
X19.323
X19.281 Y55.699
X19.243 Y55.682
X19.211 Y55.655
X19.187 Y55.62
X19.173 Y55.581
X19.17 Y55.539
X19.199 Y55.007
X19.2 Y54.993
X19.23 Y54.444
X19.24 Y54.398
X19.262 Y54.357
X19.296 Y54.324
X19.337 Y54.302
X19.383 Y54.294
X19.837
X19.987 Y54.301
X20.126 Y54.357
X20.25 Y54.442
X20.356 Y54.548
X20.444 Y54.669
X20.514 Y54.802
X20.566 Y54.943
X20.599 Y55.089
X20.609 Y55.239
X20.599 Y55.388
X20.59 Y55.423
X20.518 Y55.569
X20.389 Y55.67
X20.23 Y55.706
X19.776
X19.735 Y55.699
X19.697 Y55.682
X19.665 Y55.655
X19.641 Y55.62
X19.627 Y55.581
X19.623 Y55.539
X19.653 Y55.007
X19.654 Y54.993
X19.684 Y54.444
X19.693 Y54.398
X19.716 Y54.357
X19.749 Y54.324
X19.791 Y54.302
X19.837 Y54.294
X20.271
X20.421 Y54.301
X20.562 Y54.352
X20.688 Y54.433
X20.796 Y54.537
X20.887 Y54.656
X20.96 Y54.788
X21.014 Y54.927
X21.049 Y55.073
X21.062 Y55.223
X21.054 Y55.372
X21.044 Y55.416
X20.997 Y55.531
X20.915 Y55.625
X20.806 Y55.685
X20.683 Y55.706
X20.23
X20.181 Y55.697
X20.138 Y55.673
X20.104 Y55.636
X20.083 Y55.591
X20.077 Y55.542
X20.097 Y55.006
Y54.994
X20.118 Y54.446
X20.127 Y54.4
X20.149 Y54.358
X20.182 Y54.325
X20.224 Y54.302
X20.271 Y54.294
X20.73
X20.88 Y54.301
X21.021 Y54.353
X21.146 Y54.436
X21.254 Y54.54
X21.343 Y54.661
X21.415 Y54.792
X21.469 Y54.932
X21.503 Y55.078
X21.516 Y55.228
X21.507 Y55.377
X21.498 Y55.418
X21.427 Y55.566
X21.298 Y55.669
X21.137 Y55.706
X20.683
X20.634 Y55.697
X20.59 Y55.672
X20.556 Y55.636
X20.535 Y55.59
X20.53 Y55.541
X20.553 Y55.007
Y54.993
X20.577 Y54.446
X20.586 Y54.399
X20.609 Y54.358
X20.642 Y54.324
X20.684 Y54.302
X20.73 Y54.294
X21.191
X21.341 Y54.301
X21.481 Y54.355
X21.605 Y54.439
X21.712 Y54.545
X21.801 Y54.666
X21.872 Y54.798
X21.925 Y54.938
X21.958 Y55.084
X21.969 Y55.234
X21.96 Y55.383
X21.951 Y55.421
X21.878 Y55.568
X21.75 Y55.67
X21.59 Y55.706
X21.137
X21.088 Y55.697
X21.044 Y55.672
X21.01 Y55.635
X20.989 Y55.59
X20.984 Y55.54
X21.01 Y55.007
X21.011 Y54.993
X21.038 Y54.445
X21.047 Y54.398
X21.07 Y54.357
X21.103 Y54.324
X21.145 Y54.302
X21.191 Y54.294
X21.65
X21.8 Y54.301
X21.939 Y54.357
X22.063 Y54.442
X22.169 Y54.548
X22.257 Y54.669
X22.327 Y54.802
X22.38 Y54.942
X22.413 Y55.089
X22.423 Y55.238
X22.412 Y55.388
X22.404 Y55.423
X22.331 Y55.569
X22.203 Y55.67
X22.044 Y55.706
X21.59
X21.549 Y55.699
X21.511 Y55.682
X21.478 Y55.655
X21.455 Y55.62
X21.44 Y55.581
X21.437 Y55.539
X21.466 Y55.007
X21.467 Y54.993
X21.497 Y54.444
X21.507 Y54.398
X21.529 Y54.357
X21.563 Y54.324
X21.604 Y54.302
X21.65 Y54.294
X22.111
X22.261 Y54.301
X22.399 Y54.359
X22.522 Y54.445
X22.627 Y54.552
X22.715 Y54.674
X22.784 Y54.807
X22.836 Y54.948
X22.868 Y55.094
X22.877 Y55.244
X22.865 Y55.393
X22.857 Y55.426
X22.784 Y55.571
X22.656 Y55.671
X22.498 Y55.706
X22.044
X22.002 Y55.699
X21.964 Y55.681
X21.932 Y55.654
X21.908 Y55.62
X21.894 Y55.58
X21.891 Y55.538
X21.923 Y55.007
X21.924 Y54.993
X21.958 Y54.443
X21.968 Y54.397
X21.99 Y54.356
X22.024 Y54.324
X22.065 Y54.302
X22.111 Y54.294
X22.538
X22.688 Y54.301
X22.829 Y54.352
X22.955 Y54.433
X23.064 Y54.536
X23.154 Y54.656
X23.227 Y54.787
X23.281 Y54.927
X23.317 Y55.072
X23.33 Y55.222
X23.322 Y55.372
X23.312 Y55.415
X23.265 Y55.531
X23.183 Y55.624
X23.074 Y55.685
X22.95 Y55.706
X22.498
X22.449 Y55.697
X22.406 Y55.673
X22.372 Y55.636
X22.351 Y55.591
X22.345 Y55.542
X22.364 Y55.006
X22.365 Y54.994
X22.385 Y54.447
X22.393 Y54.4
X22.416 Y54.358
X22.449 Y54.325
X22.491 Y54.302
X22.538 Y54.294
X22.991
X23.141 Y54.301
X23.282 Y54.352
X23.408 Y54.433
X23.517 Y54.536
X23.607 Y54.656
X23.68 Y54.787
X23.735 Y54.927
X23.77 Y55.073
X23.784 Y55.222
X23.776 Y55.372
X23.766 Y55.416
X23.719 Y55.531
X23.636 Y55.625
X23.527 Y55.685
X23.404 Y55.706
X22.95
X22.902 Y55.697
X22.858 Y55.673
X22.824 Y55.636
X22.803 Y55.591
X22.797 Y55.542
X22.817 Y55.006
X22.818 Y54.994
X22.838 Y54.446
X22.847 Y54.4
X22.869 Y54.358
X22.903 Y54.325
X22.945 Y54.302
X22.991 Y54.294
X23.458
X23.608 Y54.301
X23.748 Y54.355
X23.872 Y54.439
X23.979 Y54.544
X24.068 Y54.665
X24.139 Y54.797
X24.192 Y54.937
X24.226 Y55.084
X24.238 Y55.233
X24.228 Y55.383
X24.22 Y55.419
X24.148 Y55.567
X24.019 Y55.67
X23.859 Y55.706
X23.404
X23.355 Y55.697
X23.311 Y55.672
X23.277 Y55.635
X23.257 Y55.59
X23.251 Y55.54
X23.277 Y55.007
X23.278 Y54.993
X23.305 Y54.445
X23.314 Y54.399
X23.336 Y54.357
X23.37 Y54.324
X23.412 Y54.302
X23.458 Y54.294
X23.911
X24.061 Y54.301
X24.201 Y54.355
X24.325 Y54.439
X24.432 Y54.544
X24.521 Y54.665
X24.593 Y54.797
X24.646 Y54.937
X24.68 Y55.083
X24.691 Y55.233
X24.681 Y55.382
X24.672 Y55.421
X24.6 Y55.568
X24.472 Y55.67
X24.312 Y55.706
X23.859
X23.81 Y55.697
X23.766 Y55.672
X23.732 Y55.635
X23.711 Y55.59
X23.706 Y55.54
X23.731 Y55.007
X23.732 Y54.993
X23.758 Y54.445
X23.767 Y54.399
X23.79 Y54.357
X23.823 Y54.324
X23.865 Y54.302
X23.911 Y54.294
X24.345
X24.495 Y54.301
X24.637 Y54.35
X24.764 Y54.43
X24.873 Y54.533
X24.965 Y54.651
X25.038 Y54.782
X25.093 Y54.922
X25.13 Y55.067
X25.143 Y55.217
X25.136 Y55.366
X25.126 Y55.413
X25.08 Y55.53
X24.997 Y55.624
X24.887 Y55.685
X24.764 Y55.706
X24.312
X24.263 Y55.697
X24.22 Y55.673
X24.186 Y55.637
X24.165 Y55.592
X24.159 Y55.543
X24.175 Y55.006
Y54.994
X24.192 Y54.448
X24.201 Y54.401
X24.223 Y54.359
X24.256 Y54.325
X24.298 Y54.303
X24.345 Y54.294
X24.805
X24.954 Y54.301
X25.096 Y54.351
X25.222 Y54.433
X25.33 Y54.536
X25.421 Y54.656
X25.493 Y54.787
X25.548 Y54.927
X25.583 Y55.073
X25.597 Y55.222
X25.589 Y55.372
X25.58 Y55.415
X25.533 Y55.531
X25.45 Y55.625
X25.341 Y55.685
X25.218 Y55.706
X24.764
X24.715 Y55.697
X24.672 Y55.673
X24.638 Y55.636
X24.617 Y55.591
X24.611 Y55.542
X24.631 Y55.006
Y54.994
X24.652 Y54.447
X24.66 Y54.4
X24.682 Y54.358
X24.716 Y54.325
X24.758 Y54.302
X24.805 Y54.294
X25.265
X25.415 Y54.301
X25.556 Y54.354
X25.681 Y54.436
X25.788 Y54.541
X25.878 Y54.661
X25.95 Y54.793
X26.004 Y54.933
X26.038 Y55.079
X26.051 Y55.228
X26.042 Y55.378
X26.033 Y55.418
X25.962 Y55.566
X25.833 Y55.669
X25.672 Y55.706
X25.218
X25.169 Y55.697
X25.125 Y55.672
X25.091 Y55.636
X25.07 Y55.59
X25.065 Y55.541
X25.088 Y55.007
Y54.993
X25.112 Y54.446
X25.121 Y54.399
X25.144 Y54.358
X25.177 Y54.324
X25.219 Y54.302
X25.265 Y54.294
X25.725
X25.874 Y54.301
X26.014 Y54.355
X26.139 Y54.439
X26.246 Y54.544
X26.335 Y54.665
X26.406 Y54.797
X26.459 Y54.937
X26.493 Y55.083
X26.504 Y55.233
X26.495 Y55.382
X26.485 Y55.421
X26.413 Y55.568
X26.285 Y55.67
X26.125 Y55.706
X25.672
X25.623 Y55.697
X25.579 Y55.672
X25.545 Y55.635
X25.524 Y55.59
X25.519 Y55.54
X25.545 Y55.007
Y54.993
X25.572 Y54.445
X25.581 Y54.399
X25.603 Y54.357
X25.637 Y54.324
X25.678 Y54.302
X25.725 Y54.294
X26.185
X26.335 Y54.301
X26.474 Y54.357
X26.598 Y54.442
X26.704 Y54.548
X26.792 Y54.669
X26.862 Y54.802
X26.915 Y54.942
X26.948 Y55.089
X26.958 Y55.238
X26.947 Y55.388
X26.939 Y55.423
X26.866 Y55.57
X26.738 Y55.67
X26.579 Y55.706
X26.125
X26.084 Y55.699
X26.046 Y55.682
X26.013 Y55.655
X25.989 Y55.62
X25.975 Y55.581
X25.972 Y55.539
X26.001 Y55.007
X26.002 Y54.993
X26.032 Y54.444
X26.042 Y54.398
X26.064 Y54.357
X26.098 Y54.324
X26.139 Y54.302
X26.185 Y54.294
X26.612
X26.762 Y54.301
X26.904 Y54.35
X27.031 Y54.43
X27.14 Y54.533
X27.232 Y54.651
X27.305 Y54.782
X27.36 Y54.922
X27.397 Y55.067
X27.41 Y55.216
X27.403 Y55.366
X27.393 Y55.413
X27.347 Y55.529
X27.264 Y55.624
X27.155 Y55.685
X27.031 Y55.706
X26.579
X26.53 Y55.697
X26.487 Y55.673
X26.453 Y55.637
X26.432 Y55.592
X26.426 Y55.543
X26.442 Y55.006
Y54.994
X26.459 Y54.448
X26.468 Y54.401
X26.49 Y54.359
X26.523 Y54.325
X26.565 Y54.303
X26.612 Y54.294
X27.066
X27.215 Y54.301
X27.357 Y54.35
X27.484 Y54.43
X27.593 Y54.533
X27.685 Y54.652
X27.758 Y54.783
X27.813 Y54.922
X27.849 Y55.068
X27.864 Y55.217
X27.857 Y55.367
X27.847 Y55.414
X27.8 Y55.53
X27.717 Y55.624
X27.608 Y55.685
X27.484 Y55.706
X27.031
X26.982 Y55.697
X26.939 Y55.673
X26.905 Y55.637
X26.884 Y55.592
X26.878 Y55.543
X26.895 Y55.006
Y54.994
X26.912 Y54.447
X26.921 Y54.401
X26.943 Y54.358
X26.977 Y54.325
X27.019 Y54.303
X27.066 Y54.294
X27.532
X27.682 Y54.301
X27.822 Y54.354
X27.948 Y54.436
X28.055 Y54.541
X28.145 Y54.661
X28.217 Y54.793
X28.271 Y54.933
X28.305 Y55.079
X28.318 Y55.228
X28.309 Y55.378
X28.3 Y55.418
X28.228 Y55.566
X28.099 Y55.669
X27.939 Y55.706
X27.484
X27.435 Y55.697
X27.392 Y55.672
X27.358 Y55.636
X27.337 Y55.59
X27.331 Y55.541
X27.355 Y55.007
Y54.993
X27.379 Y54.445
X27.388 Y54.399
X27.41 Y54.358
X27.444 Y54.324
X27.486 Y54.302
X27.532 Y54.294
X27.986
X28.135 Y54.301
X28.276 Y54.354
X28.401 Y54.436
X28.509 Y54.541
X28.598 Y54.661
X28.67 Y54.793
X28.724 Y54.933
X28.759 Y55.079
X28.77 Y55.228
X28.762 Y55.378
X28.752 Y55.419
X28.681 Y55.567
X28.552 Y55.67
X28.391 Y55.706
X27.939
X27.89 Y55.697
X27.846 Y55.672
X27.812 Y55.636
X27.791 Y55.59
X27.785 Y55.541
X27.808 Y55.007
X27.809 Y54.993
X27.832 Y54.446
X27.841 Y54.399
X27.864 Y54.358
X27.897 Y54.324
X27.939 Y54.302
X27.986 Y54.294
X28.452
X28.602 Y54.301
X28.741 Y54.357
X28.865 Y54.442
X28.971 Y54.548
X29.059 Y54.669
X29.129 Y54.802
X29.181 Y54.943
X29.214 Y55.089
X29.224 Y55.239
X29.214 Y55.388
X29.205 Y55.424
X29.132 Y55.57
X29.004 Y55.67
X28.845 Y55.706
X28.391
X28.35 Y55.699
X28.312 Y55.682
X28.28 Y55.655
X28.256 Y55.62
X28.242 Y55.581
X28.238 Y55.539
X28.268 Y55.007
X28.269 Y54.993
X28.299 Y54.444
X28.309 Y54.398
X28.331 Y54.357
X28.364 Y54.324
X28.406 Y54.302
X28.452 Y54.294
X28.906
X29.055 Y54.301
X29.195 Y54.357
X29.318 Y54.442
X29.424 Y54.548
X29.512 Y54.669
X29.583 Y54.802
X29.635 Y54.943
X29.668 Y55.089
X29.678 Y55.239
X29.667 Y55.388
X29.659 Y55.423
X29.586 Y55.569
X29.458 Y55.67
X29.299 Y55.706
X28.845
X28.804 Y55.699
X28.766 Y55.682
X28.733 Y55.655
X28.709 Y55.62
X28.695 Y55.581
X28.692 Y55.539
X28.721 Y55.007
X28.722 Y54.993
X28.753 Y54.444
X28.762 Y54.398
X28.784 Y54.357
X28.818 Y54.324
X28.859 Y54.302
X28.906 Y54.294
X29.34
X29.489 Y54.301
X29.631 Y54.352
X29.757 Y54.433
X29.865 Y54.537
X29.956 Y54.656
X30.028 Y54.788
X30.083 Y54.927
X30.118 Y55.073
X30.131 Y55.223
X30.123 Y55.372
X30.113 Y55.416
X30.066 Y55.531
X29.983 Y55.625
X29.874 Y55.685
X29.751 Y55.706
X29.299
X29.25 Y55.697
X29.207 Y55.673
X29.173 Y55.636
X29.152 Y55.591
X29.146 Y55.542
X29.166 Y55.006
Y54.994
X29.186 Y54.446
X29.195 Y54.4
X29.217 Y54.358
X29.251 Y54.325
X29.293 Y54.302
X29.34 Y54.294
X29.799
X29.949 Y54.301
X30.089 Y54.353
X30.215 Y54.436
X30.322 Y54.54
X30.412 Y54.661
X30.484 Y54.792
X30.538 Y54.932
X30.572 Y55.078
X30.585 Y55.228
X30.576 Y55.377
X30.567 Y55.418
X30.495 Y55.566
X30.366 Y55.669
X30.206 Y55.706
X29.751
X29.702 Y55.697
X29.659 Y55.672
X29.625 Y55.636
X29.604 Y55.59
X29.598 Y55.541
X29.622 Y55.007
Y54.993
X29.646 Y54.446
X29.655 Y54.399
X29.677 Y54.358
X29.711 Y54.324
X29.753 Y54.302
X29.799 Y54.294
X30.26
X30.409 Y54.301
X30.549 Y54.355
X30.674 Y54.439
X30.78 Y54.545
X30.869 Y54.666
X30.94 Y54.798
X30.993 Y54.938
X31.027 Y55.084
X31.038 Y55.234
X31.028 Y55.383
X31.019 Y55.421
X30.947 Y55.568
X30.819 Y55.67
X30.659 Y55.706
X30.206
X30.156 Y55.697
X30.113 Y55.672
X30.079 Y55.635
X30.058 Y55.59
X30.053 Y55.54
X30.079 Y55.007
X30.08 Y54.993
X30.107 Y54.445
X30.116 Y54.398
X30.138 Y54.357
X30.172 Y54.324
X30.213 Y54.302
X30.26 Y54.294
X30.719
X30.869 Y54.301
X31.008 Y54.357
X31.132 Y54.442
X31.238 Y54.548
X31.326 Y54.669
X31.396 Y54.802
X31.449 Y54.942
X31.481 Y55.089
X31.491 Y55.238
X31.481 Y55.388
X31.472 Y55.423
X31.4 Y55.569
X31.272 Y55.67
X31.113 Y55.706
X30.659
X30.617 Y55.699
X30.579 Y55.682
X30.547 Y55.655
X30.523 Y55.62
X30.509 Y55.581
X30.506 Y55.539
X30.535 Y55.007
X30.536 Y54.993
X30.566 Y54.444
X30.575 Y54.398
X30.598 Y54.357
X30.631 Y54.324
X30.673 Y54.302
X30.719 Y54.294
X31.18
X31.329 Y54.301
X31.468 Y54.359
X31.591 Y54.445
X31.696 Y54.552
X31.783 Y54.674
X31.853 Y54.807
X31.904 Y54.948
X31.936 Y55.094
X31.945 Y55.244
X31.934 Y55.393
X31.926 Y55.426
X31.853 Y55.571
X31.725 Y55.671
X31.567 Y55.706
X31.113
X31.071 Y55.699
X31.033 Y55.681
X31.001 Y55.654
X30.977 Y55.62
X30.963 Y55.58
X30.96 Y55.538
X30.992 Y55.007
X30.993 Y54.993
X31.027 Y54.443
X31.036 Y54.397
X31.059 Y54.356
X31.092 Y54.324
X31.134 Y54.302
X31.18 Y54.294
X31.606
X31.756 Y54.301
X31.898 Y54.352
X32.024 Y54.433
X32.132 Y54.536
X32.223 Y54.656
X32.296 Y54.787
X32.35 Y54.927
X32.386 Y55.072
X32.398 Y55.222
X32.39 Y55.372
X32.381 Y55.415
X32.334 Y55.531
X32.251 Y55.624
X32.142 Y55.685
X32.019 Y55.706
X31.567
X31.518 Y55.697
X31.474 Y55.673
X31.441 Y55.636
X31.42 Y55.591
X31.414 Y55.542
X31.433 Y55.006
Y54.994
X31.453 Y54.447
X31.462 Y54.4
X31.484 Y54.358
X31.518 Y54.325
X31.56 Y54.302
X31.606 Y54.294
X32.06
X32.21 Y54.301
X32.351 Y54.352
X32.477 Y54.433
X32.586 Y54.536
X32.676 Y54.656
X32.749 Y54.787
X32.803 Y54.927
X32.839 Y55.073
X32.852 Y55.222
X32.844 Y55.372
X32.835 Y55.416
X32.788 Y55.531
X32.705 Y55.625
X32.596 Y55.685
X32.473 Y55.706
X32.019
X31.97 Y55.697
X31.927 Y55.673
X31.893 Y55.636
X31.872 Y55.591
X31.866 Y55.542
X31.886 Y55.006
Y54.994
X31.907 Y54.446
X31.916 Y54.4
X31.938 Y54.358
X31.971 Y54.325
X32.013 Y54.302
X32.06 Y54.294
X32.526
X32.676 Y54.301
X32.816 Y54.355
X32.941 Y54.439
X33.048 Y54.544
X33.136 Y54.665
X33.207 Y54.797
X33.261 Y54.937
X33.294 Y55.084
X33.307 Y55.233
X33.297 Y55.383
X33.288 Y55.419
X33.216 Y55.567
X33.088 Y55.67
X32.927 Y55.706
X32.473
X32.424 Y55.697
X32.38 Y55.672
X32.346 Y55.635
X32.325 Y55.59
X32.32 Y55.54
X32.346 Y55.007
X32.347 Y54.993
X32.373 Y54.445
X32.383 Y54.399
X32.405 Y54.357
X32.438 Y54.324
X32.48 Y54.302
X32.526 Y54.294
X32.98
X33.13 Y54.301
X33.27 Y54.355
X33.394 Y54.439
X33.501 Y54.544
X33.59 Y54.665
X33.661 Y54.797
X33.715 Y54.937
X33.749 Y55.083
X33.759 Y55.233
X33.75 Y55.382
X33.741 Y55.421
X33.669 Y55.568
X33.54 Y55.67
X33.38 Y55.706
X32.927
X32.878 Y55.697
X32.835 Y55.672
X32.801 Y55.635
X32.78 Y55.59
X32.774 Y55.54
X32.8 Y55.007
X32.801 Y54.993
X32.827 Y54.445
X32.836 Y54.399
X32.858 Y54.357
X32.892 Y54.324
X32.934 Y54.302
X32.98 Y54.294
X33.414
X33.564 Y54.301
X33.706 Y54.35
X33.832 Y54.43
X33.942 Y54.533
X34.033 Y54.651
X34.107 Y54.782
X34.162 Y54.922
X34.198 Y55.067
X34.212 Y55.217
X34.205 Y55.366
X34.195 Y55.413
X34.148 Y55.53
X34.066 Y55.624
X33.956 Y55.685
X33.833 Y55.706
X33.38
X33.332 Y55.697
X33.288 Y55.673
X33.255 Y55.637
X33.234 Y55.592
X33.227 Y55.543
X33.244 Y55.006
Y54.994
X33.261 Y54.448
X33.269 Y54.401
X33.291 Y54.359
X33.325 Y54.325
X33.367 Y54.303
X33.414 Y54.294
X33.873
X34.023 Y54.301
X34.164 Y54.351
X34.29 Y54.433
X34.399 Y54.536
X34.49 Y54.656
X34.562 Y54.787
X34.617 Y54.927
X34.652 Y55.073
X34.666 Y55.222
X34.658 Y55.372
X34.648 Y55.415
X34.601 Y55.531
X34.519 Y55.625
X34.409 Y55.685
X34.286 Y55.706
X33.833
X33.784 Y55.697
X33.74 Y55.673
X33.706 Y55.636
X33.685 Y55.591
X33.679 Y55.542
X33.699 Y55.006
X33.7 Y54.994
X33.72 Y54.447
X33.729 Y54.4
X33.751 Y54.358
X33.785 Y54.325
X33.827 Y54.302
X33.873 Y54.294
X34.334
X34.484 Y54.301
X34.624 Y54.354
X34.749 Y54.436
X34.857 Y54.541
X34.947 Y54.661
X35.019 Y54.793
X35.072 Y54.933
X35.107 Y55.079
X35.12 Y55.228
X35.111 Y55.378
X35.102 Y55.418
X35.03 Y55.566
X34.901 Y55.669
X34.741 Y55.706
X34.286
X34.237 Y55.697
X34.194 Y55.672
X34.16 Y55.636
X34.139 Y55.59
X34.133 Y55.541
X34.157 Y55.007
Y54.993
X34.181 Y54.446
X34.19 Y54.399
X34.212 Y54.358
X34.246 Y54.324
X34.287 Y54.302
X34.334 Y54.294
X34.793
X34.943 Y54.301
X35.083 Y54.355
X35.208 Y54.439
X35.314 Y54.544
X35.403 Y54.665
X35.475 Y54.797
X35.528 Y54.937
X35.562 Y55.083
X35.573 Y55.233
X35.563 Y55.382
X35.554 Y55.421
X35.482 Y55.568
X35.354 Y55.67
X35.194 Y55.706
X34.741
X34.691 Y55.697
X34.648 Y55.672
X34.614 Y55.635
X34.593 Y55.59
X34.588 Y55.54
X34.613 Y55.007
X34.614 Y54.993
X34.64 Y54.445
X34.649 Y54.399
X34.672 Y54.357
X34.705 Y54.324
X34.747 Y54.302
X34.793 Y54.294
X35.254
X35.404 Y54.301
X35.543 Y54.357
X35.667 Y54.442
X35.773 Y54.548
X35.861 Y54.669
X35.931 Y54.802
X35.983 Y54.942
X36.016 Y55.089
X36.026 Y55.238
X36.016 Y55.388
X36.007 Y55.423
X35.935 Y55.57
X35.806 Y55.67
X35.647 Y55.706
X35.194
X35.152 Y55.699
X35.114 Y55.682
X35.082 Y55.655
X35.058 Y55.62
X35.044 Y55.581
X35.041 Y55.539
X35.07 Y55.007
X35.071 Y54.993
X35.101 Y54.444
X35.11 Y54.398
X35.133 Y54.357
X35.166 Y54.324
X35.208 Y54.302
X35.254 Y54.294
X35.681
X35.831 Y54.301
X35.972 Y54.35
X36.099 Y54.43
X36.209 Y54.533
X36.3 Y54.651
X36.374 Y54.782
X36.429 Y54.922
X36.465 Y55.067
X36.479 Y55.216
X36.472 Y55.366
X36.462 Y55.413
X36.415 Y55.529
X36.333 Y55.624
X36.223 Y55.685
X36.1 Y55.706
X35.647
X35.599 Y55.697
X35.555 Y55.673
X35.522 Y55.637
X35.5 Y55.592
X35.494 Y55.543
X35.511 Y55.006
Y54.994
X35.528 Y54.448
X35.536 Y54.401
X35.558 Y54.359
X35.592 Y54.325
X35.634 Y54.303
X35.681 Y54.294
X36.134
X36.284 Y54.301
X36.426 Y54.35
X36.553 Y54.43
X36.662 Y54.533
X36.753 Y54.652
X36.827 Y54.783
X36.882 Y54.922
X36.918 Y55.068
X36.933 Y55.217
X36.925 Y55.367
X36.915 Y55.414
X36.869 Y55.53
X36.786 Y55.624
X36.677 Y55.685
X36.553 Y55.706
X36.1
X36.051 Y55.697
X36.008 Y55.673
X35.974 Y55.637
X35.953 Y55.592
X35.946 Y55.543
X35.963 Y55.006
X35.964 Y54.994
X35.981 Y54.447
X35.99 Y54.401
X36.012 Y54.358
X36.045 Y54.325
X36.087 Y54.303
X36.134 Y54.294
X36.601
X36.751 Y54.301
X36.891 Y54.354
X37.016 Y54.436
X37.124 Y54.541
X37.214 Y54.661
X37.285 Y54.793
X37.339 Y54.933
X37.374 Y55.079
X37.387 Y55.228
X37.377 Y55.378
X37.368 Y55.418
X37.297 Y55.566
X37.168 Y55.669
X37.007 Y55.706
X36.553
X36.504 Y55.697
X36.46 Y55.672
X36.427 Y55.636
X36.406 Y55.59
X36.4 Y55.541
X36.423 Y55.007
X36.424 Y54.993
X36.448 Y54.445
X36.457 Y54.399
X36.479 Y54.358
X36.513 Y54.324
X36.554 Y54.302
X36.601 Y54.294
X37.054
X37.204 Y54.301
X37.345 Y54.354
X37.47 Y54.436
X37.577 Y54.541
X37.667 Y54.661
X37.739 Y54.793
X37.793 Y54.933
X37.827 Y55.079
X37.839 Y55.228
X37.83 Y55.378
X37.821 Y55.419
X37.749 Y55.567
X37.621 Y55.67
X37.46 Y55.706
X37.007
X36.958 Y55.697
X36.915 Y55.672
X36.881 Y55.636
X36.86 Y55.59
X36.854 Y55.541
X36.877 Y55.007
X36.878 Y54.993
X36.901 Y54.446
X36.91 Y54.399
X36.932 Y54.358
X36.966 Y54.324
X37.008 Y54.302
X37.054 Y54.294
X37.521
X37.671 Y54.301
X37.81 Y54.357
X37.933 Y54.442
X38.04 Y54.548
X38.128 Y54.669
X38.198 Y54.802
X38.25 Y54.943
X38.283 Y55.089
X38.293 Y55.239
X38.282 Y55.388
X38.274 Y55.424
X38.201 Y55.57
X38.073 Y55.67
X37.914 Y55.706
X37.46
X37.419 Y55.699
X37.38 Y55.682
X37.348 Y55.655
X37.324 Y55.62
X37.31 Y55.581
X37.307 Y55.539
X37.337 Y55.007
Y54.993
X37.368 Y54.444
X37.377 Y54.398
X37.4 Y54.357
X37.433 Y54.324
X37.475 Y54.302
X37.521 Y54.294
X37.974
X38.124 Y54.301
X38.263 Y54.357
X38.387 Y54.442
X38.493 Y54.548
X38.581 Y54.669
X38.651 Y54.802
X38.703 Y54.943
X38.736 Y55.089
X38.746 Y55.239
X38.736 Y55.388
X38.727 Y55.423
X38.655 Y55.569
X38.527 Y55.67
X38.367 Y55.706
X37.914
X37.872 Y55.699
X37.834 Y55.682
X37.802 Y55.655
X37.778 Y55.62
X37.764 Y55.581
X37.761 Y55.539
X37.79 Y55.007
X37.791 Y54.993
X37.821 Y54.444
X37.831 Y54.398
X37.853 Y54.357
X37.887 Y54.324
X37.928 Y54.302
X37.974 Y54.294
X38.408
X38.558 Y54.301
X38.699 Y54.352
X38.825 Y54.433
X38.934 Y54.537
X39.024 Y54.656
X39.097 Y54.788
X39.151 Y54.927
X39.187 Y55.073
X39.199 Y55.223
X39.191 Y55.372
X39.182 Y55.416
X39.135 Y55.531
X39.052 Y55.625
X38.943 Y55.685
X38.82 Y55.706
X38.367
X38.319 Y55.697
X38.275 Y55.673
X38.241 Y55.636
X38.22 Y55.591
X38.214 Y55.542
X38.234 Y55.006
X38.235 Y54.994
X38.255 Y54.446
X38.264 Y54.4
X38.286 Y54.358
X38.32 Y54.325
X38.362 Y54.302
X38.408 Y54.294
X38.868
X39.017 Y54.301
X39.158 Y54.353
X39.283 Y54.436
X39.391 Y54.54
X39.481 Y54.661
X39.552 Y54.792
X39.606 Y54.932
X39.641 Y55.078
X39.654 Y55.228
X39.645 Y55.377
X39.635 Y55.418
X39.564 Y55.566
X39.435 Y55.669
X39.274 Y55.706
X38.82
X38.771 Y55.697
X38.727 Y55.672
X38.693 Y55.636
X38.673 Y55.59
X38.667 Y55.541
X38.69 Y55.007
X38.691 Y54.993
X38.715 Y54.446
X38.724 Y54.399
X38.746 Y54.358
X38.779 Y54.324
X38.821 Y54.302
X38.868 Y54.294
X39.328
X39.478 Y54.301
X39.618 Y54.355
X39.742 Y54.439
X39.849 Y54.545
X39.938 Y54.666
X40.009 Y54.798
X40.062 Y54.938
X40.096 Y55.084
X40.106 Y55.234
X40.097 Y55.383
X40.088 Y55.421
X40.016 Y55.568
X39.887 Y55.67
X39.727 Y55.706
X39.274
X39.225 Y55.697
X39.181 Y55.672
X39.147 Y55.635
X39.127 Y55.59
X39.121 Y55.54
X39.147 Y55.007
X39.148 Y54.993
X39.175 Y54.445
X39.184 Y54.398
X39.207 Y54.357
X39.24 Y54.324
X39.282 Y54.302
X39.328 Y54.294
X39.788
X39.937 Y54.301
X40.077 Y54.357
X40.2 Y54.442
X40.307 Y54.548
X40.395 Y54.669
X40.465 Y54.802
X40.517 Y54.942
X40.55 Y55.089
X40.56 Y55.238
X40.55 Y55.388
X40.541 Y55.423
X40.469 Y55.569
X40.34 Y55.67
X40.181 Y55.706
X39.727
X39.686 Y55.699
X39.648 Y55.682
X39.616 Y55.655
X39.592 Y55.62
X39.578 Y55.581
X39.574 Y55.539
X39.604 Y55.007
Y54.993
X39.635 Y54.444
X39.644 Y54.398
X39.666 Y54.357
X39.7 Y54.324
X39.742 Y54.302
X39.788 Y54.294
X40.248
X40.398 Y54.301
X40.537 Y54.359
X40.659 Y54.445
X40.765 Y54.552
X40.852 Y54.674
X40.921 Y54.807
X40.973 Y54.948
X41.005 Y55.094
X41.014 Y55.244
X41.003 Y55.393
X40.995 Y55.426
X40.922 Y55.571
X40.794 Y55.671
X40.635 Y55.706
X40.181
X40.14 Y55.699
X40.101 Y55.681
X40.069 Y55.654
X40.045 Y55.62
X40.031 Y55.58
X40.028 Y55.538
X40.061 Y55.007
X40.062 Y54.993
X40.095 Y54.443
X40.105 Y54.397
X40.128 Y54.356
X40.161 Y54.324
X40.202 Y54.302
X40.248 Y54.294
X40.675
X40.825 Y54.301
X40.966 Y54.352
X41.092 Y54.433
X41.201 Y54.536
X41.292 Y54.656
X41.364 Y54.787
X41.419 Y54.927
X41.454 Y55.072
X41.467 Y55.222
X41.459 Y55.372
X41.45 Y55.415
X41.403 Y55.531
X41.32 Y55.624
X41.211 Y55.685
X41.088 Y55.706
X40.635
X40.587 Y55.697
X40.543 Y55.673
X40.509 Y55.636
X40.488 Y55.591
X40.482 Y55.542
X40.502 Y55.006
Y54.994
X40.522 Y54.447
X40.531 Y54.4
X40.553 Y54.358
X40.586 Y54.325
X40.628 Y54.302
X40.675 Y54.294
X41.128
X41.278 Y54.301
X41.42 Y54.352
X41.546 Y54.433
X41.654 Y54.536
X41.745 Y54.656
X41.817 Y54.787
X41.872 Y54.927
X41.907 Y55.073
X41.921 Y55.222
X41.913 Y55.372
X41.903 Y55.416
X41.856 Y55.531
X41.774 Y55.625
X41.665 Y55.685
X41.542 Y55.706
X41.088
X41.039 Y55.697
X40.995 Y55.673
X40.962 Y55.636
X40.941 Y55.591
X40.935 Y55.542
X40.955 Y55.006
Y54.994
X40.975 Y54.446
X40.984 Y54.4
X41.006 Y54.358
X41.04 Y54.325
X41.082 Y54.302
X41.128 Y54.294
X41.595
X41.745 Y54.301
X41.885 Y54.355
X42.009 Y54.439
X42.116 Y54.544
X42.205 Y54.665
X42.276 Y54.797
X42.329 Y54.937
X42.363 Y55.084
X42.375 Y55.233
X42.365 Y55.383
X42.357 Y55.419
X42.285 Y55.567
X42.156 Y55.67
X41.996 Y55.706
X41.542
X41.492 Y55.697
X41.449 Y55.672
X41.415 Y55.635
X41.394 Y55.59
X41.389 Y55.54
X41.415 Y55.007
Y54.993
X41.442 Y54.445
X41.451 Y54.399
X41.474 Y54.357
X41.507 Y54.324
X41.549 Y54.302
X41.595 Y54.294
X42.049
X42.198 Y54.301
X42.338 Y54.355
X42.463 Y54.439
X42.57 Y54.544
X42.659 Y54.665
X42.73 Y54.797
X42.783 Y54.937
X42.817 Y55.083
X42.828 Y55.233
X42.819 Y55.382
X42.81 Y55.421
X42.738 Y55.568
X42.609 Y55.67
X42.449 Y55.706
X41.996
X41.947 Y55.697
X41.903 Y55.672
X41.869 Y55.635
X41.848 Y55.59
X41.843 Y55.54
X41.869 Y55.007
Y54.993
X41.895 Y54.445
X41.905 Y54.399
X41.927 Y54.357
X41.961 Y54.324
X42.002 Y54.302
X42.049 Y54.294
X42.483
X42.632 Y54.301
X42.774 Y54.35
X42.901 Y54.43
X43.01 Y54.533
X43.102 Y54.651
X43.175 Y54.782
X43.231 Y54.922
X43.267 Y55.067
X43.28 Y55.217
X43.273 Y55.366
X43.263 Y55.413
X43.217 Y55.53
X43.134 Y55.624
X43.025 Y55.685
X42.901 Y55.706
X42.449
X42.4 Y55.697
X42.357 Y55.673
X42.323 Y55.637
X42.302 Y55.592
X42.296 Y55.543
X42.312 Y55.006
X42.313 Y54.994
X42.329 Y54.448
X42.338 Y54.401
X42.36 Y54.359
X42.394 Y54.325
X42.436 Y54.303
X42.483 Y54.294
X42.942
X43.092 Y54.301
X43.233 Y54.351
X43.359 Y54.433
X43.468 Y54.536
X43.558 Y54.656
X43.631 Y54.787
X43.685 Y54.927
X43.721 Y55.073
X43.735 Y55.222
X43.726 Y55.372
X43.717 Y55.415
X43.67 Y55.531
X43.587 Y55.625
X43.478 Y55.685
X43.355 Y55.706
X42.901
X42.852 Y55.697
X42.809 Y55.673
X42.775 Y55.636
X42.754 Y55.591
X42.748 Y55.542
X42.768 Y55.006
Y54.994
X42.789 Y54.447
X42.798 Y54.4
X42.82 Y54.358
X42.853 Y54.325
X42.895 Y54.302
X42.942 Y54.294
X43.403
X43.552 Y54.301
X43.693 Y54.354
X43.818 Y54.436
X43.926 Y54.541
X44.015 Y54.661
X44.087 Y54.793
X44.141 Y54.933
X44.176 Y55.079
X44.189 Y55.228
X44.179 Y55.378
X44.17 Y55.418
X44.099 Y55.566
X43.97 Y55.669
X43.809 Y55.706
X43.355
X43.306 Y55.697
X43.262 Y55.672
X43.229 Y55.636
X43.208 Y55.59
X43.202 Y55.541
X43.225 Y55.007
X43.226 Y54.993
X43.249 Y54.446
X43.259 Y54.399
X43.281 Y54.358
X43.314 Y54.324
X43.356 Y54.302
X43.403 Y54.294
X43.862
X44.012 Y54.301
X44.152 Y54.355
X44.276 Y54.439
X44.383 Y54.544
X44.472 Y54.665
X44.543 Y54.797
X44.597 Y54.937
X44.63 Y55.083
X44.641 Y55.233
X44.632 Y55.382
X44.623 Y55.421
X44.551 Y55.568
X44.422 Y55.67
X44.262 Y55.706
X43.809
X43.76 Y55.697
X43.716 Y55.672
X43.682 Y55.635
X43.662 Y55.59
X43.656 Y55.54
X43.682 Y55.007
Y54.993
X43.709 Y54.445
X43.718 Y54.399
X43.74 Y54.357
X43.774 Y54.324
X43.816 Y54.302
X43.862 Y54.294
X44.323
X44.472 Y54.301
X44.612 Y54.357
X44.735 Y54.442
X44.841 Y54.548
X44.93 Y54.669
X45. Y54.802
X45.052 Y54.942
X45.085 Y55.089
X45.095 Y55.238
X45.085 Y55.388
X45.076 Y55.423
X45.003 Y55.57
X44.875 Y55.67
X44.716 Y55.706
X44.262
X44.221 Y55.699
X44.183 Y55.682
X44.151 Y55.655
X44.127 Y55.62
X44.113 Y55.581
X44.109 Y55.539
X44.139 Y55.007
Y54.993
X44.17 Y54.444
X44.179 Y54.398
X44.201 Y54.357
X44.235 Y54.324
X44.277 Y54.302
X44.323 Y54.294
X44.749
X44.899 Y54.301
X45.041 Y54.35
X45.168 Y54.43
X45.277 Y54.533
X45.369 Y54.651
X45.442 Y54.782
X45.498 Y54.922
X45.534 Y55.067
X45.547 Y55.216
X45.54 Y55.366
X45.53 Y55.413
X45.484 Y55.529
X45.401 Y55.624
X45.292 Y55.685
X45.168 Y55.706
X44.716
X44.667 Y55.697
X44.624 Y55.673
X44.59 Y55.637
X44.569 Y55.592
X44.563 Y55.543
X44.579 Y55.006
X44.58 Y54.994
X44.596 Y54.448
X44.605 Y54.401
X44.627 Y54.359
X44.66 Y54.325
X44.703 Y54.303
X44.749 Y54.294
X45.203
X45.353 Y54.301
X45.495 Y54.35
X45.621 Y54.43
X45.731 Y54.533
X45.822 Y54.652
X45.895 Y54.783
X45.951 Y54.922
X45.987 Y55.068
X46.001 Y55.217
X45.994 Y55.367
X45.984 Y55.414
X45.937 Y55.53
X45.855 Y55.624
X45.745 Y55.685
X45.622 Y55.706
X45.168
X45.12 Y55.697
X45.076 Y55.673
X45.042 Y55.637
X45.021 Y55.592
X45.015 Y55.543
X45.032 Y55.006
Y54.994
X45.05 Y54.447
X45.058 Y54.401
X45.08 Y54.358
X45.114 Y54.325
X45.156 Y54.303
X45.203 Y54.294
X45.669
X45.819 Y54.301
X45.96 Y54.354
X46.085 Y54.436
X46.193 Y54.541
X46.282 Y54.661
X46.354 Y54.793
X46.408 Y54.933
X46.442 Y55.079
X46.455 Y55.228
X46.446 Y55.378
X46.437 Y55.418
X46.366 Y55.566
X46.237 Y55.669
X46.076 Y55.706
X45.622
X45.573 Y55.697
X45.529 Y55.672
X45.495 Y55.636
X45.474 Y55.59
X45.469 Y55.541
X45.492 Y55.007
Y54.993
X45.516 Y54.445
X45.525 Y54.399
X45.548 Y54.358
X45.581 Y54.324
X45.623 Y54.302
X45.669 Y54.294
X46.123
X46.273 Y54.301
X46.413 Y54.354
X46.538 Y54.436
X46.646 Y54.541
X46.736 Y54.661
X46.808 Y54.793
X46.862 Y54.933
X46.896 Y55.079
X46.908 Y55.228
X46.899 Y55.378
X46.89 Y55.419
X46.818 Y55.567
X46.689 Y55.67
X46.529 Y55.706
X46.076
X46.027 Y55.697
X45.983 Y55.672
X45.949 Y55.636
X45.929 Y55.59
X45.923 Y55.541
X45.946 Y55.007
Y54.993
X45.97 Y54.446
X45.979 Y54.399
X46.001 Y54.358
X46.035 Y54.324
X46.076 Y54.302
X46.123 Y54.294
X46.589
X46.739 Y54.301
X46.878 Y54.357
X47.002 Y54.442
X47.108 Y54.548
X47.196 Y54.669
X47.266 Y54.802
X47.319 Y54.943
X47.351 Y55.089
X47.361 Y55.239
X47.351 Y55.388
X47.342 Y55.424
X47.27 Y55.57
X47.141 Y55.67
X46.982 Y55.706
X46.529
X46.487 Y55.699
X46.449 Y55.682
X46.417 Y55.655
X46.393 Y55.62
X46.379 Y55.581
X46.376 Y55.539
X46.405 Y55.007
X46.406 Y54.993
X46.436 Y54.444
X46.446 Y54.398
X46.468 Y54.357
X46.502 Y54.324
X46.543 Y54.302
X46.589 Y54.294
X47.043
X47.193 Y54.301
X47.332 Y54.357
X47.456 Y54.442
X47.562 Y54.548
X47.65 Y54.669
X47.72 Y54.802
X47.772 Y54.943
X47.805 Y55.089
X47.815 Y55.239
X47.805 Y55.388
X47.796 Y55.423
X47.724 Y55.569
X47.595 Y55.67
X47.436 Y55.706
X46.982
X46.941 Y55.699
X46.903 Y55.682
X46.871 Y55.655
X46.847 Y55.62
X46.833 Y55.581
X46.829 Y55.539
X46.859 Y55.007
X46.86 Y54.993
X46.89 Y54.444
X46.899 Y54.398
X46.922 Y54.357
X46.955 Y54.324
X46.997 Y54.302
X47.043 Y54.294
X47.477
X47.627 Y54.301
X47.768 Y54.352
X47.894 Y54.433
X48.002 Y54.537
X48.093 Y54.656
X48.166 Y54.788
X48.22 Y54.927
X48.255 Y55.073
X48.268 Y55.223
X48.26 Y55.372
X48.25 Y55.416
X48.203 Y55.531
X48.121 Y55.625
X48.012 Y55.685
X47.889 Y55.706
X47.436
X47.387 Y55.697
X47.344 Y55.673
X47.31 Y55.636
X47.289 Y55.591
X47.283 Y55.542
X47.303 Y55.006
Y54.994
X47.324 Y54.446
X47.333 Y54.4
X47.355 Y54.358
X47.388 Y54.325
X47.43 Y54.302
X47.477 Y54.294
X47.936
X48.086 Y54.301
X48.227 Y54.353
X48.352 Y54.436
X48.46 Y54.54
X48.549 Y54.661
X48.621 Y54.792
X48.675 Y54.932
X48.709 Y55.078
X48.722 Y55.228
X48.713 Y55.377
X48.704 Y55.418
X48.633 Y55.566
X48.504 Y55.669
X48.343 Y55.706
X47.889
X47.84 Y55.697
X47.796 Y55.672
X47.762 Y55.636
X47.741 Y55.59
X47.736 Y55.541
X47.759 Y55.007
Y54.993
X47.783 Y54.446
X47.792 Y54.399
X47.814 Y54.358
X47.848 Y54.324
X47.89 Y54.302
X47.936 Y54.294
X48.397
X48.547 Y54.301
X48.687 Y54.355
X48.811 Y54.439
X48.918 Y54.545
X49.007 Y54.666
X49.078 Y54.798
X49.131 Y54.938
X49.164 Y55.084
X49.175 Y55.234
X49.166 Y55.383
X49.156 Y55.421
X49.084 Y55.568
X48.956 Y55.67
X48.796 Y55.706
X48.343
X48.294 Y55.697
X48.25 Y55.672
X48.216 Y55.635
X48.195 Y55.59
X48.19 Y55.54
X48.216 Y55.007
X48.217 Y54.993
X48.244 Y54.445
X48.253 Y54.398
X48.275 Y54.357
X48.309 Y54.324
X48.351 Y54.302
X48.397 Y54.294
X48.856
X49.006 Y54.301
X49.145 Y54.357
X49.269 Y54.442
X49.375 Y54.548
X49.463 Y54.669
X49.533 Y54.802
X49.586 Y54.942
X49.619 Y55.089
X49.629 Y55.238
X49.618 Y55.388
X49.61 Y55.423
X49.537 Y55.569
X49.409 Y55.67
X49.25 Y55.706
X48.796
X48.755 Y55.699
X48.717 Y55.682
X48.684 Y55.655
X48.66 Y55.62
X48.646 Y55.581
X48.643 Y55.539
X48.672 Y55.007
X48.673 Y54.993
X48.703 Y54.444
X48.713 Y54.398
X48.735 Y54.357
X48.769 Y54.324
X48.81 Y54.302
X48.856 Y54.294
X49.317
X49.467 Y54.301
X49.605 Y54.359
X49.728 Y54.445
X49.833 Y54.552
X49.921 Y54.674
X49.99 Y54.807
X50.041 Y54.948
X50.074 Y55.094
X50.083 Y55.244
X50.071 Y55.393
X50.063 Y55.426
X49.99 Y55.571
X49.862 Y55.671
X49.704 Y55.706
X49.25
X49.208 Y55.699
X49.17 Y55.681
X49.138 Y55.654
X49.114 Y55.62
X49.1 Y55.58
X49.097 Y55.538
X49.129 Y55.007
X49.13 Y54.993
X49.164 Y54.443
X49.174 Y54.397
X49.196 Y54.356
X49.23 Y54.324
X49.271 Y54.302
X49.317 Y54.294
X49.744
X49.894 Y54.301
X50.035 Y54.352
X50.161 Y54.433
X50.269 Y54.536
X50.36 Y54.656
X50.433 Y54.787
X50.487 Y54.927
X50.523 Y55.072
X50.536 Y55.222
X50.528 Y55.372
X50.518 Y55.415
X50.471 Y55.531
X50.389 Y55.624
X50.28 Y55.685
X50.156 Y55.706
X49.704
X49.655 Y55.697
X49.612 Y55.673
X49.578 Y55.636
X49.557 Y55.591
X49.551 Y55.542
X49.57 Y55.006
X49.571 Y54.994
X49.591 Y54.447
X49.599 Y54.4
X49.622 Y54.358
X49.655 Y54.325
X49.697 Y54.302
X49.744 Y54.294
X50.197
X50.347 Y54.301
X50.488 Y54.352
X50.614 Y54.433
X50.723 Y54.536
X50.813 Y54.656
X50.886 Y54.787
X50.941 Y54.927
X50.976 Y55.073
X50.99 Y55.222
X50.982 Y55.372
X50.972 Y55.416
X50.925 Y55.531
X50.842 Y55.625
X50.733 Y55.685
X50.61 Y55.706
X50.156
X50.108 Y55.697
X50.064 Y55.673
X50.03 Y55.636
X50.009 Y55.591
X50.003 Y55.542
X50.023 Y55.006
X50.024 Y54.994
X50.044 Y54.446
X50.053 Y54.4
X50.075 Y54.358
X50.109 Y54.325
X50.151 Y54.302
X50.197 Y54.294
X50.664
X50.814 Y54.301
X50.953 Y54.355
X51.078 Y54.439
X51.185 Y54.544
X51.274 Y54.665
X51.345 Y54.797
X51.398 Y54.937
X51.432 Y55.084
X51.444 Y55.233
X51.434 Y55.383
X51.425 Y55.419
X51.354 Y55.567
X51.225 Y55.67
X51.065 Y55.706
X50.61
X50.561 Y55.697
X50.517 Y55.672
X50.483 Y55.635
X50.463 Y55.59
X50.457 Y55.54
X50.483 Y55.007
X50.484 Y54.993
X50.511 Y54.445
X50.52 Y54.399
X50.542 Y54.357
X50.576 Y54.324
X50.617 Y54.302
X50.664 Y54.294
X51.117
X51.267 Y54.301
X51.407 Y54.355
X51.531 Y54.439
X51.638 Y54.544
X51.727 Y54.665
X51.799 Y54.797
X51.852 Y54.937
X51.886 Y55.083
X51.897 Y55.233
X51.887 Y55.382
X51.878 Y55.421
X51.806 Y55.568
X51.678 Y55.67
X51.518 Y55.706
X51.065
X51.016 Y55.697
X50.972 Y55.672
X50.938 Y55.635
X50.917 Y55.59
X50.912 Y55.54
X50.937 Y55.007
X50.938 Y54.993
X50.964 Y54.445
X50.973 Y54.399
X50.996 Y54.357
X51.029 Y54.324
X51.071 Y54.302
X51.117 Y54.294
X51.551
X51.701 Y54.301
X51.843 Y54.35
X51.97 Y54.43
X52.079 Y54.533
X52.171 Y54.651
X52.244 Y54.782
X52.299 Y54.922
X52.336 Y55.067
X52.349 Y55.217
X52.342 Y55.366
X52.332 Y55.413
X52.286 Y55.53
X52.203 Y55.624
X52.093 Y55.685
X51.97 Y55.706
X51.518
X51.469 Y55.697
X51.426 Y55.673
X51.392 Y55.637
X51.371 Y55.592
X51.365 Y55.543
X51.381 Y55.006
Y54.994
X51.398 Y54.448
X51.407 Y54.401
X51.429 Y54.359
X51.462 Y54.325
X51.504 Y54.303
X51.551 Y54.294
X52.011
X52.16 Y54.301
X52.302 Y54.351
X52.428 Y54.433
X52.536 Y54.536
X52.627 Y54.656
X52.699 Y54.787
X52.754 Y54.927
X52.789 Y55.073
X52.803 Y55.222
X52.795 Y55.372
X52.786 Y55.415
X52.739 Y55.531
X52.656 Y55.625
X52.547 Y55.685
X52.424 Y55.706
X51.97
X51.921 Y55.697
X51.878 Y55.673
X51.844 Y55.636
X51.823 Y55.591
X51.817 Y55.542
X51.837 Y55.006
Y54.994
X51.857 Y54.447
X51.866 Y54.4
X51.888 Y54.358
X51.922 Y54.325
X51.964 Y54.302
X52.011 Y54.294
X52.471
X52.621 Y54.301
X52.762 Y54.354
X52.887 Y54.436
X52.994 Y54.541
X53.084 Y54.661
X53.156 Y54.793
X53.21 Y54.933
X53.244 Y55.079
X53.257 Y55.228
X53.248 Y55.378
X53.239 Y55.418
X53.168 Y55.566
X53.039 Y55.669
X52.878 Y55.706
X52.424
X52.375 Y55.697
X52.331 Y55.672
X52.297 Y55.636
X52.276 Y55.59
X52.271 Y55.541
X52.294 Y55.007
Y54.993
X52.318 Y54.446
X52.327 Y54.399
X52.349 Y54.358
X52.383 Y54.324
X52.425 Y54.302
X52.471 Y54.294
X52.931
X53.08 Y54.301
X53.22 Y54.355
X53.345 Y54.439
X53.452 Y54.544
X53.541 Y54.665
X53.612 Y54.797
X53.665 Y54.937
X53.699 Y55.083
X53.71 Y55.233
X53.701 Y55.382
X53.691 Y55.421
X53.619 Y55.568
X53.491 Y55.67
X53.331 Y55.706
X52.878
X52.829 Y55.697
X52.785 Y55.672
X52.751 Y55.635
X52.73 Y55.59
X52.725 Y55.54
X52.75 Y55.007
X52.751 Y54.993
X52.778 Y54.445
X52.787 Y54.399
X52.809 Y54.357
X52.843 Y54.324
X52.884 Y54.302
X52.931 Y54.294
X53.391
X53.541 Y54.301
X53.68 Y54.357
X53.804 Y54.442
X53.91 Y54.548
X53.998 Y54.669
X54.068 Y54.802
X54.121 Y54.942
X54.154 Y55.089
X54.163 Y55.238
X54.153 Y55.388
X54.145 Y55.423
X54.072 Y55.57
X53.944 Y55.67
X53.785 Y55.706
X53.331
X53.29 Y55.699
X53.251 Y55.682
X53.219 Y55.655
X53.195 Y55.62
X53.181 Y55.581
X53.178 Y55.539
X53.207 Y55.007
X53.208 Y54.993
X53.238 Y54.444
X53.248 Y54.398
X53.27 Y54.357
X53.304 Y54.324
X53.345 Y54.302
X53.391 Y54.294
X53.818
X53.968 Y54.301
X54.11 Y54.35
X54.237 Y54.43
X54.346 Y54.533
X54.438 Y54.651
X54.511 Y54.782
X54.566 Y54.922
X54.603 Y55.067
X54.616 Y55.216
X54.609 Y55.366
X54.599 Y55.413
X54.553 Y55.529
X54.47 Y55.624
X54.36 Y55.685
X54.237 Y55.706
X53.785
X53.736 Y55.697
X53.693 Y55.673
X53.659 Y55.637
X53.638 Y55.592
X53.632 Y55.543
X53.648 Y55.006
Y54.994
X53.665 Y54.448
X53.673 Y54.401
X53.696 Y54.359
X53.729 Y54.325
X53.771 Y54.303
X53.818 Y54.294
X54.271
X54.421 Y54.301
X54.563 Y54.35
X54.69 Y54.43
X54.799 Y54.533
X54.891 Y54.652
X54.964 Y54.783
X55.019 Y54.922
X55.055 Y55.068
X55.07 Y55.217
X55.063 Y55.367
X55.053 Y55.414
X55.006 Y55.53
X54.923 Y55.624
X54.814 Y55.685
X54.69 Y55.706
X54.237
X54.188 Y55.697
X54.145 Y55.673
X54.111 Y55.637
X54.09 Y55.592
X54.084 Y55.543
X54.101 Y55.006
Y54.994
X54.118 Y54.447
X54.127 Y54.401
X54.149 Y54.358
X54.183 Y54.325
X54.225 Y54.303
X54.271 Y54.294
X54.738
X54.888 Y54.301
X55.028 Y54.354
X55.154 Y54.436
X55.261 Y54.541
X55.351 Y54.661
X55.423 Y54.793
X55.477 Y54.933
X55.511 Y55.079
X55.524 Y55.228
X55.515 Y55.378
X55.506 Y55.418
X55.434 Y55.566
X55.305 Y55.669
X55.144 Y55.706
X54.69
X54.641 Y55.697
X54.598 Y55.672
X54.564 Y55.636
X54.543 Y55.59
X54.537 Y55.541
X54.561 Y55.007
Y54.993
X54.585 Y54.445
X54.594 Y54.399
X54.616 Y54.358
X54.65 Y54.324
X54.692 Y54.302
X54.738 Y54.294
X55.191
X55.341 Y54.301
X55.482 Y54.354
X55.607 Y54.436
X55.715 Y54.541
X55.804 Y54.661
X55.876 Y54.793
X55.93 Y54.933
X55.965 Y55.079
X55.976 Y55.228
X55.968 Y55.378
X55.958 Y55.419
X55.887 Y55.567
X55.758 Y55.67
X55.597 Y55.706
X55.144
X55.095 Y55.697
X55.052 Y55.672
X55.018 Y55.636
X54.997 Y55.59
X54.991 Y55.541
X55.014 Y55.007
X55.015 Y54.993
X55.038 Y54.446
X55.047 Y54.399
X55.07 Y54.358
X55.103 Y54.324
X55.145 Y54.302
X55.191 Y54.294
X55.658
X55.808 Y54.301
X55.947 Y54.357
X56.071 Y54.442
X56.177 Y54.548
X56.265 Y54.669
X56.335 Y54.802
X56.387 Y54.943
X56.42 Y55.089
X56.43 Y55.239
X56.42 Y55.388
X56.411 Y55.424
X56.338 Y55.57
X56.21 Y55.67
X56.051 Y55.706
X55.597
X55.556 Y55.699
X55.518 Y55.682
X55.486 Y55.655
X55.462 Y55.62
X55.448 Y55.581
X55.444 Y55.539
X55.474 Y55.007
X55.475 Y54.993
X55.505 Y54.444
X55.515 Y54.398
X55.537 Y54.357
X55.57 Y54.324
X55.612 Y54.302
X55.658 Y54.294
X56.111
X56.261 Y54.301
X56.401 Y54.357
X56.524 Y54.442
X56.63 Y54.548
X56.718 Y54.669
X56.788 Y54.802
X56.841 Y54.943
X56.874 Y55.089
X56.884 Y55.239
X56.873 Y55.388
X56.865 Y55.423
X56.792 Y55.569
X56.664 Y55.67
X56.505 Y55.706
X56.051
X56.01 Y55.699
X55.972 Y55.682
X55.939 Y55.655
X55.915 Y55.62
X55.901 Y55.581
X55.898 Y55.539
X55.927 Y55.007
X55.928 Y54.993
X55.959 Y54.444
X55.968 Y54.398
X55.99 Y54.357
X56.024 Y54.324
X56.065 Y54.302
X56.111 Y54.294
X56.546
X56.695 Y54.301
X56.837 Y54.352
X56.962 Y54.433
X57.071 Y54.537
X57.162 Y54.656
X57.234 Y54.788
X57.289 Y54.927
X57.324 Y55.073
X57.336 Y55.223
X57.329 Y55.372
X57.319 Y55.416
X57.272 Y55.531
X57.189 Y55.625
X57.08 Y55.685
X56.957 Y55.706
X56.505
X56.456 Y55.697
X56.412 Y55.673
X56.379 Y55.636
X56.358 Y55.591
X56.352 Y55.542
X56.372 Y55.006
Y54.994
X56.392 Y54.446
X56.401 Y54.4
X56.423 Y54.358
X56.457 Y54.325
X56.499 Y54.302
X56.546 Y54.294
X57.005
X57.155 Y54.301
X57.295 Y54.353
X57.421 Y54.436
X57.528 Y54.54
X57.618 Y54.661
X57.69 Y54.792
X57.744 Y54.932
X57.778 Y55.078
X57.791 Y55.228
X57.782 Y55.377
X57.773 Y55.418
X57.701 Y55.566
X57.572 Y55.669
X57.412 Y55.706
X56.957
X56.908 Y55.697
X56.865 Y55.672
X56.831 Y55.636
X56.81 Y55.59
X56.804 Y55.541
X56.827 Y55.007
X56.828 Y54.993
X56.852 Y54.446
X56.861 Y54.399
X56.883 Y54.358
X56.917 Y54.324
X56.958 Y54.302
X57.005 Y54.294
X57.466
X57.615 Y54.301
X57.755 Y54.355
X57.88 Y54.439
X57.986 Y54.545
X58.075 Y54.666
X58.146 Y54.798
X58.199 Y54.938
X58.233 Y55.084
X58.244 Y55.234
X58.234 Y55.383
X58.225 Y55.421
X58.153 Y55.568
X58.024 Y55.67
X57.865 Y55.706
X57.412
X57.362 Y55.697
X57.319 Y55.672
X57.285 Y55.635
X57.264 Y55.59
X57.258 Y55.54
X57.285 Y55.007
Y54.993
X57.313 Y54.445
X57.322 Y54.398
X57.344 Y54.357
X57.378 Y54.324
X57.419 Y54.302
X57.466 Y54.294
X57.925
X58.075 Y54.301
X58.214 Y54.357
X58.338 Y54.442
X58.444 Y54.548
X58.532 Y54.669
X58.602 Y54.802
X58.654 Y54.942
X58.687 Y55.089
X58.697 Y55.238
X58.687 Y55.388
X58.678 Y55.423
X58.606 Y55.569
X58.478 Y55.67
X58.318 Y55.706
X57.865
X57.823 Y55.699
X57.785 Y55.682
X57.753 Y55.655
X57.729 Y55.62
X57.715 Y55.581
X57.712 Y55.539
X57.741 Y55.007
X57.742 Y54.993
X57.772 Y54.444
X57.781 Y54.398
X57.804 Y54.357
X57.837 Y54.324
X57.879 Y54.302
X57.925 Y54.294
X58.386
X58.535 Y54.301
X58.674 Y54.359
X58.797 Y54.445
X58.902 Y54.552
X58.989 Y54.674
X59.059 Y54.807
X59.11 Y54.948
X59.142 Y55.094
X59.151 Y55.244
X59.14 Y55.393
X59.132 Y55.426
X59.059 Y55.571
X58.931 Y55.671
X58.773 Y55.706
X58.318
X58.277 Y55.699
X58.239 Y55.681
X58.206 Y55.654
X58.183 Y55.62
X58.169 Y55.58
X58.166 Y55.538
X58.198 Y55.007
X58.199 Y54.993
X58.233 Y54.443
X58.242 Y54.397
X58.265 Y54.356
X58.298 Y54.324
X58.34 Y54.302
X58.386 Y54.294
X58.812
X58.962 Y54.301
X59.103 Y54.352
X59.229 Y54.433
X59.338 Y54.536
X59.429 Y54.656
X59.502 Y54.787
X59.556 Y54.927
X59.592 Y55.072
X59.604 Y55.222
X59.596 Y55.372
X59.587 Y55.415
X59.54 Y55.531
X59.457 Y55.624
X59.348 Y55.685
X59.225 Y55.706
X58.773
X58.724 Y55.697
X58.68 Y55.673
X58.646 Y55.636
X58.626 Y55.591
X58.62 Y55.542
X58.639 Y55.006
Y54.994
X58.659 Y54.447
X58.668 Y54.4
X58.69 Y54.358
X58.724 Y54.325
X58.766 Y54.302
X58.812 Y54.294
X59.266
X59.416 Y54.301
X59.557 Y54.352
X59.683 Y54.433
X59.792 Y54.536
X59.882 Y54.656
X59.955 Y54.787
X60.009 Y54.927
X60.045 Y55.073
X60.058 Y55.222
X60.05 Y55.372
X60.041 Y55.416
X59.994 Y55.531
X59.911 Y55.625
X59.802 Y55.685
X59.679 Y55.706
X59.225
X59.176 Y55.697
X59.133 Y55.673
X59.099 Y55.636
X59.078 Y55.591
X59.072 Y55.542
X59.092 Y55.006
Y54.994
X59.113 Y54.446
X59.122 Y54.4
X59.144 Y54.358
X59.177 Y54.325
X59.219 Y54.302
X59.266 Y54.294
X59.732
X59.882 Y54.301
X60.022 Y54.355
X60.147 Y54.439
X60.254 Y54.544
X60.342 Y54.665
X60.413 Y54.797
X60.467 Y54.937
X60.5 Y55.084
X60.513 Y55.233
X60.503 Y55.383
X60.494 Y55.419
X60.422 Y55.567
X60.294 Y55.67
X60.133 Y55.706
X59.679
X59.63 Y55.697
X59.586 Y55.672
X59.552 Y55.635
X59.531 Y55.59
X59.526 Y55.54
X59.552 Y55.007
X59.553 Y54.993
X59.579 Y54.445
X59.589 Y54.399
X59.611 Y54.357
X59.644 Y54.324
X59.686 Y54.302
X59.732 Y54.294
X60.186
X60.336 Y54.301
X60.476 Y54.355
X60.6 Y54.439
X60.707 Y54.544
X60.796 Y54.665
X60.867 Y54.797
X60.921 Y54.937
X60.954 Y55.083
X60.965 Y55.233
X60.956 Y55.382
X60.947 Y55.421
X60.875 Y55.568
X60.746 Y55.67
X60.586 Y55.706
X60.133
X60.084 Y55.697
X60.04 Y55.672
X60.007 Y55.635
X59.986 Y55.59
X59.98 Y55.54
X60.006 Y55.007
Y54.993
X60.033 Y54.445
X60.042 Y54.399
X60.064 Y54.357
X60.098 Y54.324
X60.14 Y54.302
X60.186 Y54.294
X60.62
X60.77 Y54.301
X60.912 Y54.35
X61.038 Y54.43
X61.148 Y54.533
X61.239 Y54.651
X61.313 Y54.782
X61.368 Y54.922
X61.404 Y55.067
X61.418 Y55.217
X61.411 Y55.366
X61.401 Y55.413
X61.354 Y55.53
X61.272 Y55.624
X61.162 Y55.685
X61.039 Y55.706
X60.586
X60.538 Y55.697
X60.494 Y55.673
X60.461 Y55.637
X60.439 Y55.592
X60.433 Y55.543
X60.45 Y55.006
Y54.994
X60.467 Y54.448
X60.475 Y54.401
X60.497 Y54.359
X60.531 Y54.325
X60.573 Y54.303
X60.62 Y54.294
X61.079
X61.229 Y54.301
X61.37 Y54.351
X61.496 Y54.433
X61.605 Y54.536
X61.696 Y54.656
X61.768 Y54.787
X61.823 Y54.927
X61.858 Y55.073
X61.872 Y55.222
X61.864 Y55.372
X61.854 Y55.415
X61.807 Y55.531
X61.724 Y55.625
X61.615 Y55.685
X61.492 Y55.706
X61.039
X60.99 Y55.697
X60.946 Y55.673
X60.912 Y55.636
X60.891 Y55.591
X60.885 Y55.542
X60.905 Y55.006
X60.906 Y54.994
X60.926 Y54.447
X60.935 Y54.4
X60.957 Y54.358
X60.991 Y54.325
X61.033 Y54.302
X61.079 Y54.294
X61.54
X61.69 Y54.301
X61.83 Y54.354
X61.955 Y54.436
X62.063 Y54.541
X62.153 Y54.661
X62.224 Y54.793
X62.278 Y54.933
X62.313 Y55.079
X62.326 Y55.228
X62.317 Y55.378
X62.308 Y55.418
X62.236 Y55.566
X62.107 Y55.669
X61.946 Y55.706
X61.492
X61.443 Y55.697
X61.4 Y55.672
X61.366 Y55.636
X61.345 Y55.59
X61.339 Y55.541
X61.362 Y55.007
X61.363 Y54.993
X61.387 Y54.446
X61.396 Y54.399
X61.418 Y54.358
X61.452 Y54.324
X61.493 Y54.302
X61.54 Y54.294
X61.999
X62.149 Y54.301
X62.289 Y54.355
X62.413 Y54.439
X62.52 Y54.544
X62.609 Y54.665
X62.681 Y54.797
X62.734 Y54.937
X62.768 Y55.083
X62.779 Y55.233
X62.769 Y55.382
X62.76 Y55.421
X62.688 Y55.568
X62.559 Y55.67
X62.4 Y55.706
X61.946
X61.897 Y55.697
X61.854 Y55.672
X61.82 Y55.635
X61.799 Y55.59
X61.793 Y55.54
X61.819 Y55.007
X61.82 Y54.993
X61.846 Y54.445
X61.855 Y54.399
X61.878 Y54.357
X61.911 Y54.324
X61.953 Y54.302
X61.999 Y54.294
X62.46
X62.61 Y54.301
X62.749 Y54.357
X62.873 Y54.442
X62.979 Y54.548
X63.067 Y54.669
X63.137 Y54.802
X63.189 Y54.942
X63.222 Y55.089
X63.232 Y55.238
X63.222 Y55.388
X63.213 Y55.423
X63.141 Y55.57
X63.012 Y55.67
X62.853 Y55.706
X62.4
X62.358 Y55.699
X62.32 Y55.682
X62.288 Y55.655
X62.264 Y55.62
X62.25 Y55.581
X62.247 Y55.539
X62.276 Y55.007
X62.277 Y54.993
X62.307 Y54.444
X62.316 Y54.398
X62.339 Y54.357
X62.372 Y54.324
X62.414 Y54.302
X62.46 Y54.294
X62.887
X63.036 Y54.301
X63.178 Y54.35
X63.305 Y54.43
X63.415 Y54.533
X63.506 Y54.651
X63.58 Y54.782
X63.635 Y54.922
X63.671 Y55.067
X63.685 Y55.216
X63.678 Y55.366
X63.668 Y55.413
X63.621 Y55.529
X63.539 Y55.624
X63.429 Y55.685
X63.305 Y55.706
X62.853
X62.805 Y55.697
X62.761 Y55.673
X62.727 Y55.637
X62.706 Y55.592
X62.7 Y55.543
X62.717 Y55.006
Y54.994
X62.734 Y54.448
X62.742 Y54.401
X62.764 Y54.359
X62.798 Y54.325
X62.84 Y54.303
X62.887 Y54.294
X63.34
X63.49 Y54.301
X63.632 Y54.35
X63.759 Y54.43
X63.868 Y54.533
X63.959 Y54.652
X64.032 Y54.783
X64.088 Y54.922
X64.124 Y55.068
X64.138 Y55.217
X64.131 Y55.367
X64.121 Y55.414
X64.075 Y55.53
X63.992 Y55.624
X63.882 Y55.685
X63.759 Y55.706
X63.305
X63.257 Y55.697
X63.213 Y55.673
X63.18 Y55.637
X63.159 Y55.592
X63.152 Y55.543
X63.169 Y55.006
X63.17 Y54.994
X63.187 Y54.447
X63.196 Y54.401
X63.218 Y54.358
X63.251 Y54.325
X63.293 Y54.303
X63.34 Y54.294
X63.807
X63.957 Y54.301
X64.097 Y54.354
X64.222 Y54.436
X64.33 Y54.541
X64.419 Y54.661
X64.491 Y54.793
X64.545 Y54.933
X64.58 Y55.079
X64.593 Y55.228
X64.583 Y55.378
X64.574 Y55.418
X64.503 Y55.566
X64.374 Y55.669
X64.213 Y55.706
X63.759
X63.71 Y55.697
X63.666 Y55.672
X63.632 Y55.636
X63.612 Y55.59
X63.606 Y55.541
X63.629 Y55.007
X63.63 Y54.993
X63.654 Y54.445
X63.663 Y54.399
X63.685 Y54.358
X63.718 Y54.324
X63.76 Y54.302
X63.807 Y54.294
X64.26
X64.41 Y54.301
X64.55 Y54.354
X64.676 Y54.436
X64.783 Y54.541
X64.873 Y54.661
X64.945 Y54.793
X64.999 Y54.933
X65.033 Y55.079
X65.045 Y55.228
X65.036 Y55.378
X65.027 Y55.419
X64.955 Y55.567
X64.826 Y55.67
X64.666 Y55.706
X64.213
X64.164 Y55.697
X64.121 Y55.672
X64.087 Y55.636
X64.066 Y55.59
X64.06 Y55.541
X64.083 Y55.007
X64.084 Y54.993
X64.107 Y54.446
X64.116 Y54.399
X64.138 Y54.358
X64.172 Y54.324
X64.214 Y54.302
X64.26 Y54.294
X64.727
X64.877 Y54.301
X65.016 Y54.357
X65.139 Y54.442
X65.246 Y54.548
X65.333 Y54.669
X65.403 Y54.802
X65.456 Y54.943
X65.489 Y55.089
X65.499 Y55.239
X65.488 Y55.388
X65.48 Y55.424
X65.407 Y55.57
X65.279 Y55.67
X65.12 Y55.706
X64.666
X64.625 Y55.699
X64.586 Y55.682
X64.554 Y55.655
X64.53 Y55.62
X64.516 Y55.581
X64.513 Y55.539
X64.542 Y55.007
X64.543 Y54.993
X64.574 Y54.444
X64.583 Y54.398
X64.606 Y54.357
X64.639 Y54.324
X64.681 Y54.302
X64.727 Y54.294
X65.18
X65.33 Y54.301
X65.469 Y54.357
X65.593 Y54.442
X65.699 Y54.548
X65.787 Y54.669
X65.857 Y54.802
X65.909 Y54.943
X65.942 Y55.089
X65.952 Y55.239
X65.942 Y55.388
X65.933 Y55.423
X65.861 Y55.569
X65.733 Y55.67
X65.573 Y55.706
X65.12
X65.078 Y55.699
X65.04 Y55.682
X65.008 Y55.655
X64.984 Y55.62
X64.97 Y55.581
X64.967 Y55.539
X64.996 Y55.007
X64.997 Y54.993
X65.027 Y54.444
X65.037 Y54.398
X65.059 Y54.357
X65.093 Y54.324
X65.134 Y54.302
X65.18 Y54.294
X65.614
X65.764 Y54.301
X65.905 Y54.352
X66.031 Y54.433
X66.14 Y54.537
X66.23 Y54.656
X66.303 Y54.788
X66.357 Y54.927
X66.393 Y55.073
X66.405 Y55.223
X66.397 Y55.372
X66.388 Y55.416
X66.341 Y55.531
X66.258 Y55.625
X66.149 Y55.685
X66.026 Y55.706
X65.573
X65.525 Y55.697
X65.481 Y55.673
X65.447 Y55.636
X65.426 Y55.591
X65.42 Y55.542
X65.44 Y55.006
X65.441 Y54.994
X65.461 Y54.446
X65.47 Y54.4
X65.492 Y54.358
X65.526 Y54.325
X65.568 Y54.302
X65.614 Y54.294
X66.074
X66.223 Y54.301
X66.364 Y54.353
X66.489 Y54.436
X66.597 Y54.54
X66.687 Y54.661
X66.758 Y54.792
X66.812 Y54.932
X66.847 Y55.078
X66.86 Y55.228
X66.851 Y55.377
X66.841 Y55.418
X66.77 Y55.566
X66.641 Y55.669
X66.48 Y55.706
X66.026
X65.977 Y55.697
X65.933 Y55.672
X65.899 Y55.636
X65.879 Y55.59
X65.873 Y55.541
X65.896 Y55.007
X65.897 Y54.993
X65.92 Y54.446
X65.93 Y54.399
X65.952 Y54.358
X65.985 Y54.324
X66.027 Y54.302
X66.074 Y54.294
X66.534
X66.684 Y54.301
X66.824 Y54.355
X66.948 Y54.439
X67.055 Y54.545
X67.144 Y54.666
X67.215 Y54.798
X67.268 Y54.938
X67.302 Y55.084
X67.312 Y55.234
X67.303 Y55.383
X67.294 Y55.421
X67.222 Y55.568
X67.093 Y55.67
X66.933 Y55.706
X66.48
X66.431 Y55.697
X66.387 Y55.672
X66.353 Y55.635
X66.333 Y55.59
X66.327 Y55.54
X66.353 Y55.007
X66.354 Y54.993
X66.381 Y54.445
X66.39 Y54.398
X66.413 Y54.357
X66.446 Y54.324
X66.488 Y54.302
X66.534 Y54.294
X66.994
X67.143 Y54.301
X67.283 Y54.357
X67.406 Y54.442
X67.513 Y54.548
X67.601 Y54.669
X67.671 Y54.802
X67.723 Y54.942
X67.756 Y55.089
X67.766 Y55.238
X67.756 Y55.388
X67.747 Y55.423
X67.675 Y55.569
X67.546 Y55.67
X67.387 Y55.706
X66.933
X66.892 Y55.699
X66.854 Y55.682
X66.822 Y55.655
X66.798 Y55.62
X66.784 Y55.581
X66.78 Y55.539
X66.81 Y55.007
Y54.993
X66.841 Y54.444
X66.85 Y54.398
X66.872 Y54.357
X66.906 Y54.324
X66.947 Y54.302
X66.994 Y54.294
X67.454
X67.604 Y54.301
X67.743 Y54.359
X67.865 Y54.445
X67.971 Y54.552
X68.058 Y54.674
X68.127 Y54.807
X68.179 Y54.948
X68.211 Y55.094
X68.22 Y55.244
X68.209 Y55.393
X68.201 Y55.426
X68.128 Y55.571
X68. Y55.671
X67.841 Y55.706
X67.387
X67.346 Y55.699
X67.307 Y55.681
X67.275 Y55.654
X67.251 Y55.62
X67.237 Y55.58
X67.234 Y55.538
X67.267 Y55.007
X67.268 Y54.993
X67.301 Y54.443
X67.311 Y54.397
X67.333 Y54.356
X67.367 Y54.324
X67.408 Y54.302
X67.454 Y54.294
X67.881
X68.031 Y54.301
X68.172 Y54.352
X68.298 Y54.433
X68.407 Y54.536
X68.498 Y54.656
X68.57 Y54.787
X68.625 Y54.927
X68.66 Y55.072
X68.673 Y55.222
X68.665 Y55.372
X68.656 Y55.415
X68.609 Y55.531
X68.526 Y55.624
X68.417 Y55.685
X68.294 Y55.706
X67.841
X67.792 Y55.697
X67.749 Y55.673
X67.715 Y55.636
X67.694 Y55.591
X67.688 Y55.542
X67.708 Y55.006
Y54.994
X67.728 Y54.447
X67.737 Y54.4
X67.759 Y54.358
X67.792 Y54.325
X67.834 Y54.302
X67.881 Y54.294
X68.334
X68.484 Y54.301
X68.626 Y54.352
X68.752 Y54.433
X68.86 Y54.536
X68.951 Y54.656
X69.023 Y54.787
X69.078 Y54.927
X69.113 Y55.073
X69.127 Y55.222
X69.119 Y55.372
X69.109 Y55.416
X69.062 Y55.531
X68.98 Y55.625
X68.871 Y55.685
X68.748 Y55.706
X68.294
X68.245 Y55.697
X68.201 Y55.673
X68.168 Y55.636
X68.147 Y55.591
X68.141 Y55.542
X68.161 Y55.006
Y54.994
X68.181 Y54.446
X68.19 Y54.4
X68.212 Y54.358
X68.246 Y54.325
X68.288 Y54.302
X68.334 Y54.294
X68.801
X68.951 Y54.301
X69.091 Y54.355
X69.215 Y54.439
X69.322 Y54.544
X69.411 Y54.665
X69.482 Y54.797
X69.535 Y54.937
X69.569 Y55.084
X69.581 Y55.233
X69.571 Y55.383
X69.563 Y55.419
X69.491 Y55.567
X69.362 Y55.67
X69.202 Y55.706
X68.748
X68.698 Y55.697
X68.655 Y55.672
X68.621 Y55.635
X68.6 Y55.59
X68.595 Y55.54
X68.621 Y55.007
Y54.993
X68.648 Y54.445
X68.657 Y54.399
X68.68 Y54.357
X68.713 Y54.324
X68.755 Y54.302
X68.801 Y54.294
X69.254
X69.404 Y54.301
X69.544 Y54.355
X69.669 Y54.439
X69.776 Y54.544
X69.865 Y54.665
X69.936 Y54.797
X69.989 Y54.937
X70.023 Y55.083
X70.034 Y55.233
X70.025 Y55.382
X70.016 Y55.421
X69.944 Y55.568
X69.815 Y55.67
X69.655 Y55.706
X69.202
X69.153 Y55.697
X69.109 Y55.672
X69.075 Y55.635
X69.054 Y55.59
X69.049 Y55.54
X69.074 Y55.007
X69.075 Y54.993
X69.101 Y54.445
X69.111 Y54.399
X69.133 Y54.357
X69.166 Y54.324
X69.208 Y54.302
X69.254 Y54.294
X69.688
X69.838 Y54.301
X69.98 Y54.35
X70.107 Y54.43
X70.216 Y54.533
X70.308 Y54.651
X70.381 Y54.782
X70.437 Y54.922
X70.473 Y55.067
X70.486 Y55.217
X70.479 Y55.366
X70.469 Y55.413
X70.423 Y55.53
X70.34 Y55.624
X70.231 Y55.685
X70.107 Y55.706
X69.655
X69.606 Y55.697
X69.563 Y55.673
X69.529 Y55.637
X69.508 Y55.592
X69.502 Y55.543
X69.518 Y55.006
X69.519 Y54.994
X69.535 Y54.448
X69.544 Y54.401
X69.566 Y54.359
X69.6 Y54.325
X69.642 Y54.303
X69.688 Y54.294
X70.148
X70.298 Y54.301
X70.439 Y54.351
X70.565 Y54.433
X70.674 Y54.536
X70.764 Y54.656
X70.837 Y54.787
X70.891 Y54.927
X70.927 Y55.073
X70.941 Y55.222
X70.932 Y55.372
X70.923 Y55.415
X70.876 Y55.531
X70.793 Y55.625
X70.684 Y55.685
X70.561 Y55.706
X70.107
X70.058 Y55.697
X70.015 Y55.673
X69.981 Y55.636
X69.96 Y55.591
X69.954 Y55.542
X69.974 Y55.006
Y54.994
X69.995 Y54.447
X70.004 Y54.4
X70.026 Y54.358
X70.059 Y54.325
X70.101 Y54.302
X70.148 Y54.294
X70.609
X70.758 Y54.301
X70.899 Y54.354
X71.024 Y54.436
X71.132 Y54.541
X71.221 Y54.661
X71.293 Y54.793
X71.347 Y54.933
X71.382 Y55.079
X71.395 Y55.228
X71.385 Y55.378
X71.376 Y55.418
X71.305 Y55.566
X71.176 Y55.669
X71.015 Y55.706
X70.561
X70.512 Y55.697
X70.468 Y55.672
X70.435 Y55.636
X70.414 Y55.59
X70.408 Y55.541
X70.431 Y55.007
X70.432 Y54.993
X70.455 Y54.446
X70.464 Y54.399
X70.487 Y54.358
X70.52 Y54.324
X70.562 Y54.302
X70.609 Y54.294
X71.068
X71.218 Y54.301
X71.358 Y54.355
X71.482 Y54.439
X71.589 Y54.544
X71.678 Y54.665
X71.749 Y54.797
X71.803 Y54.937
X71.836 Y55.083
X71.847 Y55.233
X71.838 Y55.382
X71.829 Y55.421
X71.757 Y55.568
X71.628 Y55.67
X71.468 Y55.706
X71.015
X70.966 Y55.697
X70.922 Y55.672
X70.888 Y55.635
X70.868 Y55.59
X70.862 Y55.54
X70.888 Y55.007
Y54.993
X70.915 Y54.445
X70.924 Y54.399
X70.946 Y54.357
X70.98 Y54.324
X71.022 Y54.302
X71.068 Y54.294
X71.529
X71.678 Y54.301
X71.818 Y54.357
X71.941 Y54.442
X72.047 Y54.548
X72.135 Y54.669
X72.206 Y54.802
X72.258 Y54.942
X72.291 Y55.089
X72.301 Y55.238
X72.29 Y55.388
X72.282 Y55.423
X72.209 Y55.57
X72.081 Y55.67
X71.922 Y55.706
X71.468
X71.427 Y55.699
X71.389 Y55.682
X71.357 Y55.655
X71.333 Y55.62
X71.319 Y55.581
X71.315 Y55.539
X71.345 Y55.007
Y54.993
X71.376 Y54.444
X71.385 Y54.398
X71.407 Y54.357
X71.441 Y54.324
X71.482 Y54.302
X71.529 Y54.294
X71.955
X72.105 Y54.301
X72.247 Y54.35
X72.374 Y54.43
X72.483 Y54.533
X72.575 Y54.651
X72.648 Y54.782
X72.704 Y54.922
X72.74 Y55.067
X72.753 Y55.216
X72.746 Y55.366
X72.736 Y55.413
X72.69 Y55.529
X72.607 Y55.624
X72.498 Y55.685
X72.374 Y55.706
X71.922
X71.873 Y55.697
X71.83 Y55.673
X71.796 Y55.637
X71.775 Y55.592
X71.769 Y55.543
X71.785 Y55.006
X71.786 Y54.994
X71.802 Y54.448
X71.811 Y54.401
X71.833 Y54.359
X71.866 Y54.325
X71.909 Y54.303
X71.955 Y54.294
X72.409
X72.559 Y54.301
X72.7 Y54.35
X72.827 Y54.43
X72.937 Y54.533
X73.028 Y54.652
X73.101 Y54.783
X73.157 Y54.922
X73.193 Y55.068
X73.207 Y55.217
X73.2 Y55.367
X73.19 Y55.414
X73.143 Y55.53
X73.061 Y55.624
X72.951 Y55.685
X72.828 Y55.706
X72.374
X72.325 Y55.697
X72.282 Y55.673
X72.248 Y55.637
X72.227 Y55.592
X72.221 Y55.543
X72.238 Y55.006
Y54.994
X72.256 Y54.447
X72.264 Y54.401
X72.286 Y54.358
X72.32 Y54.325
X72.362 Y54.303
X72.409 Y54.294
X72.875
X73.025 Y54.301
X73.166 Y54.354
X73.291 Y54.436
X73.399 Y54.541
X73.488 Y54.661
X73.56 Y54.793
X73.614 Y54.933
X73.648 Y55.079
X73.661 Y55.228
X73.652 Y55.378
X73.643 Y55.418
X73.572 Y55.566
X73.443 Y55.669
X73.282 Y55.706
X72.828
X72.779 Y55.697
X72.735 Y55.672
X72.701 Y55.636
X72.68 Y55.59
X72.675 Y55.541
X72.698 Y55.007
Y54.993
X72.722 Y54.445
X72.731 Y54.399
X72.754 Y54.358
X72.787 Y54.324
X72.829 Y54.302
X72.875 Y54.294
X73.329
X73.479 Y54.301
X73.619 Y54.354
X73.744 Y54.436
X73.852 Y54.541
X73.942 Y54.661
X74.014 Y54.793
X74.068 Y54.933
X74.102 Y55.079
X74.114 Y55.228
X74.105 Y55.378
X74.096 Y55.419
X74.024 Y55.567
X73.895 Y55.67
X73.735 Y55.706
X73.282
X73.233 Y55.697
X73.189 Y55.672
X73.155 Y55.636
X73.134 Y55.59
X73.129 Y55.541
X73.152 Y55.007
Y54.993
X73.176 Y54.446
X73.185 Y54.399
X73.207 Y54.358
X73.241 Y54.324
X73.282 Y54.302
X73.329 Y54.294
X73.795
X73.945 Y54.301
X74.084 Y54.357
X74.208 Y54.442
X74.314 Y54.548
X74.402 Y54.669
X74.472 Y54.802
X74.525 Y54.943
X74.557 Y55.089
X74.567 Y55.239
X74.557 Y55.388
X74.548 Y55.424
X74.476 Y55.57
X74.347 Y55.67
X74.188 Y55.706
X73.735
X73.693 Y55.699
X73.655 Y55.682
X73.623 Y55.655
X73.599 Y55.62
X73.585 Y55.581
X73.582 Y55.539
X73.611 Y55.007
X73.612 Y54.993
X73.642 Y54.444
X73.652 Y54.398
X73.674 Y54.357
X73.708 Y54.324
X73.749 Y54.302
X73.795 Y54.294
X74.249
X74.399 Y54.301
X74.538 Y54.357
X74.661 Y54.442
X74.768 Y54.548
X74.856 Y54.669
X74.926 Y54.802
X74.978 Y54.943
X75.011 Y55.089
X75.021 Y55.239
X75.011 Y55.388
X75.002 Y55.423
X74.93 Y55.569
X74.801 Y55.67
X74.642 Y55.706
X74.188
X74.147 Y55.699
X74.109 Y55.682
X74.077 Y55.655
X74.053 Y55.62
X74.039 Y55.581
X74.035 Y55.539
X74.065 Y55.007
Y54.993
X74.096 Y54.444
X74.105 Y54.398
X74.128 Y54.357
X74.161 Y54.324
X74.203 Y54.302
X74.249 Y54.294
X74.683
X74.833 Y54.301
X74.974 Y54.352
X75.1 Y54.433
X75.208 Y54.537
X75.299 Y54.656
X75.372 Y54.788
X75.426 Y54.927
X75.461 Y55.073
X75.474 Y55.223
X75.466 Y55.372
X75.456 Y55.416
X75.409 Y55.531
X75.327 Y55.625
X75.218 Y55.685
X75.095 Y55.706
X74.642
X74.593 Y55.697
X74.55 Y55.673
X74.516 Y55.636
X74.495 Y55.591
X74.489 Y55.542
X74.509 Y55.006
Y54.994
X74.53 Y54.446
X74.539 Y54.4
X74.561 Y54.358
X74.594 Y54.325
X74.636 Y54.302
X74.683 Y54.294
X75.142
X75.292 Y54.301
X75.433 Y54.353
X75.558 Y54.436
X75.666 Y54.54
X75.755 Y54.661
X75.827 Y54.792
X75.881 Y54.932
X75.915 Y55.078
X75.928 Y55.228
X75.919 Y55.377
X75.91 Y55.418
X75.839 Y55.566
X75.71 Y55.669
X75.549 Y55.706
X75.095
X75.046 Y55.697
X75.002 Y55.672
X74.968 Y55.636
X74.947 Y55.59
X74.942 Y55.541
X74.965 Y55.007
Y54.993
X74.989 Y54.446
X74.998 Y54.399
X75.02 Y54.358
X75.054 Y54.324
X75.096 Y54.302
X75.142 Y54.294
X75.603
X75.753 Y54.301
X75.893 Y54.355
X76.017 Y54.439
X76.124 Y54.545
X76.212 Y54.666
X76.284 Y54.798
X76.337 Y54.938
X76.37 Y55.084
X76.381 Y55.234
X76.371 Y55.383
X76.362 Y55.421
X76.29 Y55.568
X76.162 Y55.67
X76.002 Y55.706
X75.549
X75.5 Y55.697
X75.456 Y55.672
X75.422 Y55.635
X75.401 Y55.59
X75.396 Y55.54
X75.422 Y55.007
X75.423 Y54.993
X75.45 Y54.445
X75.459 Y54.398
X75.481 Y54.357
X75.515 Y54.324
X75.557 Y54.302
X75.603 Y54.294
X76.062
X76.212 Y54.301
X76.351 Y54.357
X76.475 Y54.442
X76.581 Y54.548
X76.669 Y54.669
X76.739 Y54.802
X76.792 Y54.942
X76.825 Y55.089
X76.835 Y55.238
X76.824 Y55.388
X76.816 Y55.423
X76.743 Y55.569
X76.615 Y55.67
X76.456 Y55.706
X76.002
X75.961 Y55.699
X75.923 Y55.682
X75.89 Y55.655
X75.866 Y55.62
X75.852 Y55.581
X75.849 Y55.539
X75.878 Y55.007
X75.879 Y54.993
X75.909 Y54.444
X75.919 Y54.398
X75.941 Y54.357
X75.975 Y54.324
X76.016 Y54.302
X76.062 Y54.294
X76.523
X76.673 Y54.301
X76.811 Y54.359
X76.934 Y54.445
X77.039 Y54.552
X77.127 Y54.674
X77.196 Y54.807
X77.247 Y54.948
X77.28 Y55.094
X77.289 Y55.244
X77.277 Y55.393
X77.269 Y55.426
X77.196 Y55.571
X77.068 Y55.671
X76.91 Y55.706
X76.456
X76.414 Y55.699
X76.376 Y55.681
X76.344 Y55.654
X76.32 Y55.62
X76.306 Y55.58
X76.303 Y55.538
X76.335 Y55.007
X76.336 Y54.993
X76.37 Y54.443
X76.38 Y54.397
X76.402 Y54.356
X76.436 Y54.324
X76.477 Y54.302
X76.523 Y54.294
X76.95
X77.099 Y54.301
X77.241 Y54.352
X77.367 Y54.433
X77.475 Y54.536
X77.566 Y54.656
X77.639 Y54.787
X77.693 Y54.927
X77.729 Y55.072
X77.742 Y55.222
X77.734 Y55.372
X77.724 Y55.415
X77.677 Y55.531
X77.595 Y55.624
X77.485 Y55.685
X77.362 Y55.706
X76.91
X76.861 Y55.697
X76.818 Y55.673
X76.784 Y55.636
X76.763 Y55.591
X76.757 Y55.542
X76.776 Y55.006
X76.777 Y54.994
X76.797 Y54.447
X76.805 Y54.4
X76.827 Y54.358
X76.861 Y54.325
X76.903 Y54.302
X76.95 Y54.294
X77.403
X77.553 Y54.301
X77.694 Y54.352
X77.82 Y54.433
X77.929 Y54.536
X78.019 Y54.656
X78.092 Y54.787
X78.147 Y54.927
X78.182 Y55.073
X78.196 Y55.222
X78.188 Y55.372
X78.178 Y55.416
X78.131 Y55.531
X78.048 Y55.625
X77.939 Y55.685
X77.816 Y55.706
X77.362
X77.314 Y55.697
X77.27 Y55.673
X77.236 Y55.636
X77.215 Y55.591
X77.209 Y55.542
X77.229 Y55.006
X77.23 Y54.994
X77.25 Y54.446
X77.259 Y54.4
X77.281 Y54.358
X77.315 Y54.325
X77.356 Y54.302
X77.403 Y54.294
X77.87
X78.019 Y54.301
X78.159 Y54.355
X78.284 Y54.439
X78.391 Y54.544
X78.48 Y54.665
X78.551 Y54.797
X78.604 Y54.937
X78.638 Y55.084
X78.65 Y55.233
X78.64 Y55.383
X78.631 Y55.419
X78.56 Y55.567
X78.431 Y55.67
X78.271 Y55.706
X77.816
X77.767 Y55.697
X77.723 Y55.672
X77.689 Y55.635
X77.669 Y55.59
X77.663 Y55.54
X77.689 Y55.007
X77.69 Y54.993
X77.717 Y54.445
X77.726 Y54.399
X77.748 Y54.357
X77.782 Y54.324
X77.823 Y54.302
X77.87 Y54.294
X78.323
X78.473 Y54.301
X78.613 Y54.355
X78.737 Y54.439
X78.844 Y54.544
X78.933 Y54.665
X79.005 Y54.797
X79.058 Y54.937
X79.092 Y55.083
X79.103 Y55.233
X79.093 Y55.382
X79.084 Y55.421
X79.012 Y55.568
X78.884 Y55.67
X78.724 Y55.706
X78.271
X78.221 Y55.697
X78.178 Y55.672
X78.144 Y55.635
X78.123 Y55.59
X78.118 Y55.54
X78.143 Y55.007
X78.144 Y54.993
X78.17 Y54.445
X78.179 Y54.399
X78.202 Y54.357
X78.235 Y54.324
X78.277 Y54.302
X78.323 Y54.294
X78.757
X78.907 Y54.301
X79.049 Y54.35
X79.176 Y54.43
X79.285 Y54.533
X79.377 Y54.651
X79.45 Y54.782
X79.505 Y54.922
X79.542 Y55.067
X79.555 Y55.217
X79.548 Y55.366
X79.538 Y55.413
X79.492 Y55.53
X79.409 Y55.624
X79.299 Y55.685
X79.176 Y55.706
X78.724
X78.675 Y55.697
X78.632 Y55.673
X78.598 Y55.637
X78.577 Y55.592
X78.571 Y55.543
X78.587 Y55.006
Y54.994
X78.604 Y54.448
X78.613 Y54.401
X78.635 Y54.359
X78.668 Y54.325
X78.71 Y54.303
X78.757 Y54.294
X79.216
X79.366 Y54.301
X79.508 Y54.351
X79.634 Y54.433
X79.742 Y54.536
X79.833 Y54.656
X79.905 Y54.787
X79.96 Y54.927
X79.995 Y55.073
X80.009 Y55.222
X80.001 Y55.372
X79.991 Y55.415
X79.944 Y55.531
X79.862 Y55.625
X79.753 Y55.685
X79.63 Y55.706
X79.176
X79.127 Y55.697
X79.084 Y55.673
X79.05 Y55.636
X79.029 Y55.591
X79.023 Y55.542
X79.043 Y55.006
Y54.994
X79.063 Y54.447
X79.072 Y54.4
X79.094 Y54.358
X79.128 Y54.325
X79.17 Y54.302
X79.216 Y54.294
X79.677
X79.827 Y54.301
X79.968 Y54.354
X80.093 Y54.436
X80.2 Y54.541
X80.29 Y54.661
X80.362 Y54.793
X80.416 Y54.933
X80.45 Y55.079
X80.463 Y55.228
X80.454 Y55.378
X80.445 Y55.418
X80.374 Y55.566
X80.245 Y55.669
X80.084 Y55.706
X79.63
X79.581 Y55.697
X79.537 Y55.672
X79.503 Y55.636
X79.482 Y55.59
X79.477 Y55.541
X79.5 Y55.007
Y54.993
X79.524 Y54.446
X79.533 Y54.399
X79.555 Y54.358
X79.589 Y54.324
X79.631 Y54.302
X79.677 Y54.294
X80.136
X80.286 Y54.301
X80.426 Y54.355
X80.551 Y54.439
X80.658 Y54.544
X80.747 Y54.665
X80.818 Y54.797
X80.871 Y54.937
X80.905 Y55.083
X80.916 Y55.233
X80.906 Y55.382
X80.897 Y55.421
X80.825 Y55.568
X80.697 Y55.67
X80.537 Y55.706
X80.084
X80.035 Y55.697
X79.991 Y55.672
X79.957 Y55.635
X79.936 Y55.59
X79.931 Y55.54
X79.956 Y55.007
X79.957 Y54.993
X79.983 Y54.445
X79.993 Y54.399
X80.015 Y54.357
X80.049 Y54.324
X80.09 Y54.302
X80.136 Y54.294
X80.597
X80.747 Y54.301
X80.886 Y54.357
X81.01 Y54.442
X81.116 Y54.548
X81.204 Y54.669
X81.274 Y54.802
X81.327 Y54.942
X81.36 Y55.089
X81.369 Y55.238
X81.359 Y55.388
X81.351 Y55.423
X81.278 Y55.57
X81.15 Y55.67
X80.991 Y55.706
X80.537
X80.495 Y55.699
X80.457 Y55.682
X80.425 Y55.655
X80.401 Y55.62
X80.387 Y55.581
X80.384 Y55.539
X80.413 Y55.007
X80.414 Y54.993
X80.444 Y54.444
X80.454 Y54.398
X80.476 Y54.357
X80.51 Y54.324
X80.551 Y54.302
X80.597 Y54.294
X81.024
X81.174 Y54.301
X81.316 Y54.35
X81.442 Y54.43
X81.552 Y54.533
X81.644 Y54.651
X81.717 Y54.782
X81.772 Y54.922
X81.809 Y55.067
X81.822 Y55.216
X81.815 Y55.366
X81.805 Y55.413
X81.759 Y55.529
X81.676 Y55.624
X81.566 Y55.685
X81.443 Y55.706
X80.991
X80.942 Y55.697
X80.899 Y55.673
X80.865 Y55.637
X80.844 Y55.592
X80.837 Y55.543
X80.854 Y55.006
Y54.994
X80.871 Y54.448
X80.879 Y54.401
X80.901 Y54.359
X80.935 Y54.325
X80.977 Y54.303
X81.024 Y54.294
X81.477
X81.627 Y54.301
X81.769 Y54.35
X81.896 Y54.43
X82.005 Y54.533
X82.096 Y54.652
X82.17 Y54.783
X82.225 Y54.922
X82.261 Y55.068
X82.276 Y55.217
X82.269 Y55.367
X82.258 Y55.414
X82.212 Y55.53
X82.129 Y55.624
X82.02 Y55.685
X81.896 Y55.706
X81.443
X81.394 Y55.697
X81.351 Y55.673
X81.317 Y55.637
X81.296 Y55.592
X81.29 Y55.543
X81.307 Y55.006
Y54.994
X81.324 Y54.447
X81.333 Y54.401
X81.355 Y54.358
X81.389 Y54.325
X81.431 Y54.303
X81.477 Y54.294
X81.944
X82.094 Y54.301
X82.234 Y54.354
X82.36 Y54.436
X82.467 Y54.541
X82.557 Y54.661
X82.628 Y54.793
X82.682 Y54.933
X82.717 Y55.079
X82.73 Y55.228
X82.721 Y55.378
X82.712 Y55.418
X82.64 Y55.566
X82.511 Y55.669
X82.35 Y55.706
X81.896
X81.847 Y55.697
X81.804 Y55.672
X81.77 Y55.636
X81.749 Y55.59
X81.743 Y55.541
X81.767 Y55.007
Y54.993
X81.791 Y54.445
X81.8 Y54.399
X81.822 Y54.358
X81.856 Y54.324
X81.898 Y54.302
X81.944 Y54.294
X82.397
X82.547 Y54.301
X82.688 Y54.354
X82.813 Y54.436
X82.921 Y54.541
X83.01 Y54.661
X83.082 Y54.793
X83.136 Y54.933
X83.171 Y55.079
X83.182 Y55.228
X83.174 Y55.378
X83.164 Y55.419
X83.093 Y55.567
X82.964 Y55.67
X82.803 Y55.706
X82.35
X82.301 Y55.697
X82.258 Y55.672
X82.224 Y55.636
X82.203 Y55.59
X82.197 Y55.541
X82.22 Y55.007
X82.221 Y54.993
X82.244 Y54.446
X82.253 Y54.399
X82.276 Y54.358
X82.309 Y54.324
X82.351 Y54.302
X82.397 Y54.294
X82.864
X83.014 Y54.301
X83.153 Y54.357
X83.277 Y54.442
X83.383 Y54.548
X83.471 Y54.669
X83.541 Y54.802
X83.593 Y54.943
X83.626 Y55.089
X83.636 Y55.239
X83.625 Y55.388
X83.617 Y55.424
X83.544 Y55.57
X83.416 Y55.67
X83.257 Y55.706
X82.803
X82.762 Y55.699
X82.724 Y55.682
X82.692 Y55.655
X82.668 Y55.62
X82.653 Y55.581
X82.65 Y55.539
X82.68 Y55.007
X82.681 Y54.993
X82.711 Y54.444
X82.72 Y54.398
X82.743 Y54.357
X82.776 Y54.324
X82.818 Y54.302
X82.864 Y54.294
X83.317
X83.467 Y54.301
X83.607 Y54.357
X83.73 Y54.442
X83.836 Y54.548
X83.924 Y54.669
X83.994 Y54.802
X84.047 Y54.943
X84.08 Y55.089
X84.09 Y55.239
X84.079 Y55.388
X84.071 Y55.423
X83.998 Y55.569
X83.87 Y55.67
X83.711 Y55.706
X83.257
X83.216 Y55.699
X83.177 Y55.682
X83.145 Y55.655
X83.121 Y55.62
X83.107 Y55.581
X83.104 Y55.539
X83.133 Y55.007
X83.134 Y54.993
X83.164 Y54.444
X83.174 Y54.398
X83.196 Y54.357
X83.23 Y54.324
X83.271 Y54.302
X83.317 Y54.294
X83.751
X83.901 Y54.301
X84.043 Y54.352
X84.168 Y54.433
X84.277 Y54.537
X84.368 Y54.656
X84.44 Y54.788
X84.495 Y54.927
X84.53 Y55.073
X84.542 Y55.223
X84.535 Y55.372
X84.525 Y55.416
X84.478 Y55.531
X84.395 Y55.625
X84.286 Y55.685
X84.163 Y55.706
X83.711
X83.662 Y55.697
X83.618 Y55.673
X83.585 Y55.636
X83.564 Y55.591
X83.558 Y55.542
X83.578 Y55.006
Y54.994
X83.598 Y54.446
X83.607 Y54.4
X83.629 Y54.358
X83.663 Y54.325
X83.705 Y54.302
X83.751 Y54.294
X84.211
X84.361 Y54.301
X84.501 Y54.353
X84.627 Y54.436
X84.734 Y54.54
X84.824 Y54.661
X84.896 Y54.792
X84.949 Y54.932
X84.984 Y55.078
X84.997 Y55.228
X84.988 Y55.377
X84.979 Y55.418
X84.907 Y55.566
X84.778 Y55.669
X84.617 Y55.706
X84.163
X84.114 Y55.697
X84.071 Y55.672
X84.037 Y55.636
X84.016 Y55.59
X84.01 Y55.541
X84.033 Y55.007
X84.034 Y54.993
X84.058 Y54.446
X84.067 Y54.399
X84.089 Y54.358
X84.123 Y54.324
X84.164 Y54.302
X84.211 Y54.294
X84.671
X84.821 Y54.301
X84.961 Y54.355
X85.086 Y54.439
X85.192 Y54.545
X85.281 Y54.666
X85.352 Y54.798
X85.405 Y54.938
X85.439 Y55.084
X85.45 Y55.234
X85.44 Y55.383
X85.431 Y55.421
X85.359 Y55.568
X85.23 Y55.67
X85.071 Y55.706
X84.617
X84.568 Y55.697
X84.525 Y55.672
X84.491 Y55.635
X84.47 Y55.59
X84.464 Y55.54
X84.491 Y55.007
Y54.993
X84.518 Y54.445
X84.528 Y54.398
X84.55 Y54.357
X84.584 Y54.324
X84.625 Y54.302
X84.671 Y54.294
X85.131
X85.281 Y54.301
X85.42 Y54.357
X85.544 Y54.442
X85.65 Y54.548
X85.738 Y54.669
X85.808 Y54.802
X85.86 Y54.942
X85.893 Y55.089
X85.903 Y55.238
X85.893 Y55.388
X85.884 Y55.423
X85.812 Y55.569
X85.684 Y55.67
X85.524 Y55.706
X85.071
X85.029 Y55.699
X84.991 Y55.682
X84.959 Y55.655
X84.935 Y55.62
X84.921 Y55.581
X84.918 Y55.539
X84.947 Y55.007
X84.948 Y54.993
X84.978 Y54.444
X84.987 Y54.398
X85.01 Y54.357
X85.043 Y54.324
X85.085 Y54.302
X85.131 Y54.294
X85.591
X85.741 Y54.301
X85.88 Y54.359
X86.003 Y54.445
X86.108 Y54.552
X86.195 Y54.674
X86.264 Y54.807
X86.316 Y54.948
X86.348 Y55.094
X86.357 Y55.244
X86.346 Y55.393
X86.338 Y55.426
X86.265 Y55.571
X86.137 Y55.671
X85.979 Y55.706
X85.524
X85.483 Y55.699
X85.445 Y55.681
X85.412 Y55.654
X85.388 Y55.62
X85.375 Y55.58
X85.371 Y55.538
X85.404 Y55.007
X85.405 Y54.993
X85.439 Y54.443
X85.448 Y54.397
X85.471 Y54.356
X85.504 Y54.324
X85.546 Y54.302
X85.591 Y54.294
X86.018
X86.168 Y54.301
X86.309 Y54.352
X86.435 Y54.433
X86.544 Y54.536
X86.635 Y54.656
X86.708 Y54.787
X86.762 Y54.927
X86.798 Y55.072
X86.81 Y55.222
X86.802 Y55.372
X86.793 Y55.415
X86.746 Y55.531
X86.663 Y55.624
X86.554 Y55.685
X86.431 Y55.706
X85.979
X85.93 Y55.697
X85.886 Y55.673
X85.852 Y55.636
X85.831 Y55.591
X85.825 Y55.542
X85.845 Y55.006
Y54.994
X85.865 Y54.447
X85.874 Y54.4
X85.896 Y54.358
X85.93 Y54.325
X85.972 Y54.302
X86.018 Y54.294
X86.472
X86.622 Y54.301
X86.763 Y54.352
X86.889 Y54.433
X86.997 Y54.536
X87.088 Y54.656
X87.16 Y54.787
X87.215 Y54.927
X87.25 Y55.073
X87.264 Y55.222
X87.256 Y55.372
X87.247 Y55.416
X87.2 Y55.531
X87.117 Y55.625
X87.008 Y55.685
X86.885 Y55.706
X86.431
X86.382 Y55.697
X86.339 Y55.673
X86.305 Y55.636
X86.284 Y55.591
X86.278 Y55.542
X86.298 Y55.006
Y54.994
X86.319 Y54.446
X86.327 Y54.4
X86.35 Y54.358
X86.383 Y54.325
X86.425 Y54.302
X86.472 Y54.294
X86.938
X87.088 Y54.301
X87.228 Y54.355
X87.353 Y54.439
X87.459 Y54.544
X87.548 Y54.665
X87.619 Y54.797
X87.673 Y54.937
X87.706 Y55.084
X87.719 Y55.233
X87.709 Y55.383
X87.7 Y55.419
X87.628 Y55.567
X87.5 Y55.67
X87.339 Y55.706
X86.885
X86.836 Y55.697
X86.792 Y55.672
X86.758 Y55.635
X86.737 Y55.59
X86.732 Y55.54
X86.758 Y55.007
Y54.993
X86.785 Y54.445
X86.795 Y54.399
X86.817 Y54.357
X86.85 Y54.324
X86.892 Y54.302
X86.938 Y54.294
X87.392
X87.542 Y54.301
X87.682 Y54.355
X87.806 Y54.439
X87.913 Y54.544
X88.002 Y54.665
X88.073 Y54.797
X88.127 Y54.937
X88.16 Y55.083
X88.171 Y55.233
X88.162 Y55.382
X88.153 Y55.421
X88.081 Y55.568
X87.952 Y55.67
X87.792 Y55.706
X87.339
X87.29 Y55.697
X87.246 Y55.672
X87.212 Y55.635
X87.192 Y55.59
X87.186 Y55.54
X87.212 Y55.007
Y54.993
X87.239 Y54.445
X87.248 Y54.399
X87.27 Y54.357
X87.304 Y54.324
X87.345 Y54.302
X87.392 Y54.294
X87.826
X87.976 Y54.301
X88.118 Y54.35
X88.244 Y54.43
X88.354 Y54.533
X88.445 Y54.651
X88.519 Y54.782
X88.574 Y54.922
X88.61 Y55.067
X88.624 Y55.217
X88.617 Y55.366
X88.607 Y55.413
X88.56 Y55.53
X88.477 Y55.624
X88.368 Y55.685
X88.244 Y55.706
X87.792
X87.744 Y55.697
X87.7 Y55.673
X87.666 Y55.637
X87.645 Y55.592
X87.639 Y55.543
X87.656 Y55.006
Y54.994
X87.673 Y54.448
X87.681 Y54.401
X87.703 Y54.359
X87.737 Y54.325
X87.779 Y54.303
X87.826 Y54.294
X88.285
X88.435 Y54.301
X88.576 Y54.351
X88.702 Y54.433
X88.811 Y54.536
X88.901 Y54.656
X88.974 Y54.787
X89.029 Y54.927
X89.064 Y55.073
X89.078 Y55.222
X89.07 Y55.372
X89.06 Y55.415
X89.013 Y55.531
X88.93 Y55.625
X88.821 Y55.685
X88.698 Y55.706
X88.244
X88.196 Y55.697
X88.152 Y55.673
X88.118 Y55.636
X88.097 Y55.591
X88.091 Y55.542
X88.111 Y55.006
X88.112 Y54.994
X88.132 Y54.447
X88.141 Y54.4
X88.163 Y54.358
X88.197 Y54.325
X88.239 Y54.302
X88.285 Y54.294
X88.746
X88.896 Y54.301
X89.036 Y54.354
X89.161 Y54.436
X89.269 Y54.541
X89.359 Y54.661
X89.43 Y54.793
X89.484 Y54.933
X89.519 Y55.079
X89.532 Y55.228
X89.523 Y55.378
X89.514 Y55.418
X89.442 Y55.566
X89.313 Y55.669
X89.152 Y55.706
X88.698
X88.649 Y55.697
X88.606 Y55.672
X88.572 Y55.636
X88.551 Y55.59
X88.545 Y55.541
X88.568 Y55.007
X88.569 Y54.993
X88.593 Y54.446
X88.602 Y54.399
X88.624 Y54.358
X88.658 Y54.324
X88.699 Y54.302
X88.746 Y54.294
X89.205
X89.355 Y54.301
X89.495 Y54.355
X89.619 Y54.439
X89.726 Y54.544
X89.815 Y54.665
X89.887 Y54.797
X89.94 Y54.937
X89.974 Y55.083
X89.984 Y55.233
X89.975 Y55.382
X89.966 Y55.421
X89.894 Y55.568
X89.765 Y55.67
X89.606 Y55.706
X89.152
X89.103 Y55.697
X89.06 Y55.672
X89.026 Y55.635
X89.005 Y55.59
X88.999 Y55.54
X89.025 Y55.007
X89.026 Y54.993
X89.052 Y54.445
X89.061 Y54.399
X89.084 Y54.357
X89.117 Y54.324
X89.159 Y54.302
X89.205 Y54.294
X89.666
X89.816 Y54.301
X89.955 Y54.357
X90.079 Y54.442
X90.185 Y54.548
X90.273 Y54.669
X90.343 Y54.802
X90.395 Y54.942
X90.428 Y55.089
X90.438 Y55.238
X90.428 Y55.388
X90.419 Y55.423
X90.347 Y55.57
X90.218 Y55.67
X90.059 Y55.706
X89.606
X89.564 Y55.699
X89.526 Y55.682
X89.494 Y55.655
X89.47 Y55.62
X89.456 Y55.581
X89.453 Y55.539
X89.482 Y55.007
X89.483 Y54.993
X89.513 Y54.444
X89.522 Y54.398
X89.545 Y54.357
X89.578 Y54.324
X89.62 Y54.302
X89.666 Y54.294
X90.093
X90.242 Y54.301
X90.384 Y54.35
X90.511 Y54.43
X90.621 Y54.533
X90.712 Y54.651
X90.786 Y54.782
X90.841 Y54.922
X90.877 Y55.067
X90.891 Y55.216
X90.884 Y55.366
X90.874 Y55.413
X90.827 Y55.529
X90.744 Y55.624
X90.635 Y55.685
X90.511 Y55.706
X90.059
X90.011 Y55.697
X89.967 Y55.673
X89.933 Y55.637
X89.912 Y55.592
X89.906 Y55.543
X89.922 Y55.006
X89.923 Y54.994
X89.939 Y54.448
X89.948 Y54.401
X89.97 Y54.359
X90.004 Y54.325
X90.046 Y54.303
X90.093 Y54.294
X90.546
X90.696 Y54.301
X90.838 Y54.35
X90.965 Y54.43
X91.074 Y54.533
X91.165 Y54.652
X91.238 Y54.783
X91.294 Y54.922
X91.33 Y55.068
X91.344 Y55.217
X91.337 Y55.367
X91.327 Y55.414
X91.281 Y55.53
X91.198 Y55.624
X91.088 Y55.685
X90.965 Y55.706
X90.511
X90.463 Y55.697
X90.419 Y55.673
X90.386 Y55.637
X90.364 Y55.592
X90.358 Y55.543
X90.375 Y55.006
X90.376 Y54.994
X90.393 Y54.447
X90.402 Y54.401
X90.424 Y54.358
X90.457 Y54.325
X90.499 Y54.303
X90.546 Y54.294
X91.013
X91.162 Y54.301
X91.303 Y54.354
X91.428 Y54.436
X91.536 Y54.541
X91.625 Y54.661
X91.697 Y54.793
X91.751 Y54.933
X91.785 Y55.079
X91.799 Y55.228
X91.789 Y55.378
X91.78 Y55.418
X91.709 Y55.566
X91.58 Y55.669
X91.419 Y55.706
X90.965
X90.916 Y55.697
X90.872 Y55.672
X90.838 Y55.636
X90.818 Y55.59
X90.812 Y55.541
X90.835 Y55.007
X90.836 Y54.993
X90.86 Y54.445
X90.869 Y54.399
X90.891 Y54.358
X90.924 Y54.324
X90.966 Y54.302
X91.013 Y54.294
X91.466
X91.616 Y54.301
X91.756 Y54.354
X91.882 Y54.436
X91.989 Y54.541
X92.079 Y54.661
X92.151 Y54.793
X92.205 Y54.933
X92.239 Y55.079
X92.251 Y55.228
X92.242 Y55.378
X92.233 Y55.419
X92.161 Y55.567
X92.032 Y55.67
X91.872 Y55.706
X91.419
X91.37 Y55.697
X91.326 Y55.672
X91.293 Y55.636
X91.272 Y55.59
X91.266 Y55.541
X91.289 Y55.007
Y54.993
X91.313 Y54.446
X91.322 Y54.399
X91.344 Y54.358
X91.378 Y54.324
X91.42 Y54.302
X91.466 Y54.294
X91.933
X92.082 Y54.301
X92.222 Y54.357
X92.345 Y54.442
X92.451 Y54.548
X92.539 Y54.669
X92.609 Y54.802
X92.662 Y54.943
X92.695 Y55.089
X92.704 Y55.239
X92.694 Y55.388
X92.685 Y55.424
X92.613 Y55.57
X92.485 Y55.67
X92.326 Y55.706
X91.872
X91.83 Y55.699
X91.792 Y55.682
X91.76 Y55.655
X91.736 Y55.62
X91.722 Y55.581
X91.719 Y55.539
X91.748 Y55.007
X91.749 Y54.993
X91.78 Y54.444
X91.789 Y54.398
X91.812 Y54.357
X91.845 Y54.324
X91.887 Y54.302
X91.933 Y54.294
X92.386
X92.536 Y54.301
X92.675 Y54.357
X92.799 Y54.442
X92.905 Y54.548
X92.993 Y54.669
X93.063 Y54.802
X93.115 Y54.943
X93.148 Y55.089
X93.158 Y55.239
X93.148 Y55.388
X93.139 Y55.423
X93.067 Y55.569
X92.939 Y55.67
X92.779 Y55.706
X92.326
X92.284 Y55.699
X92.246 Y55.682
X92.214 Y55.655
X92.19 Y55.62
X92.176 Y55.581
X92.173 Y55.539
X92.202 Y55.007
X92.203 Y54.993
X92.233 Y54.444
X92.243 Y54.398
X92.265 Y54.357
X92.298 Y54.324
X92.34 Y54.302
X92.386 Y54.294
X92.82
X92.97 Y54.301
X93.111 Y54.352
X93.237 Y54.433
X93.346 Y54.537
X93.436 Y54.656
X93.509 Y54.788
X93.563 Y54.927
X93.599 Y55.073
X93.611 Y55.223
X93.603 Y55.372
X93.594 Y55.416
X93.547 Y55.531
X93.464 Y55.625
X93.355 Y55.685
X93.232 Y55.706
X92.779
X92.731 Y55.697
X92.687 Y55.673
X92.653 Y55.636
X92.632 Y55.591
X92.626 Y55.542
X92.646 Y55.006
X92.647 Y54.994
X92.667 Y54.446
X92.676 Y54.4
X92.698 Y54.358
X92.732 Y54.325
X92.774 Y54.302
X92.82 Y54.294
X93.279
X93.429 Y54.301
X93.57 Y54.353
X93.695 Y54.436
X93.803 Y54.54
X93.893 Y54.661
X93.964 Y54.792
X94.018 Y54.932
X94.053 Y55.078
X94.066 Y55.228
X94.056 Y55.377
X94.047 Y55.418
X93.976 Y55.566
X93.847 Y55.669
X93.686 Y55.706
X93.232
X93.183 Y55.697
X93.139 Y55.672
X93.105 Y55.636
X93.085 Y55.59
X93.079 Y55.541
X93.102 Y55.007
X93.103 Y54.993
X93.126 Y54.446
X93.135 Y54.399
X93.158 Y54.358
X93.191 Y54.324
X93.233 Y54.302
X93.279 Y54.294
X93.74
X93.89 Y54.301
X94.03 Y54.355
X94.154 Y54.439
X94.261 Y54.545
X94.35 Y54.666
X94.421 Y54.798
X94.474 Y54.938
X94.508 Y55.084
X94.518 Y55.234
X94.509 Y55.383
X94.5 Y55.421
X94.428 Y55.568
X94.299 Y55.67
X94.139 Y55.706
X93.686
X93.637 Y55.697
X93.593 Y55.672
X93.559 Y55.635
