(1001)
(T1  D=1.587 CR=0. - ZMIN=-0.508 - FLAT END MILL)
G0 G90 G94 G17
G21
G53 G0 Z0.

(ADAPTIVE1)
M5
M9
T1
S16500 M3
G4 P4.
G55
M8
G0 X33.319 Y24.315
Z15.
Z5.
Z2.5
G3 X32.682 Y25.682 Z2.417 I-0.318 J0.684 F356.
X33.319 Y24.315 Z2.335 I0.318 J-0.684
X32.682 Y25.682 Z2.252 I-0.318 J0.684
X33.319 Y24.315 Z2.169 I0.318 J-0.684
X32.682 Y25.682 Z2.086 I-0.318 J0.684
X33.319 Y24.315 Z2.004 I0.318 J-0.684
X32.682 Y25.682 Z1.921 I-0.318 J0.684
X33.319 Y24.315 Z1.838 I0.318 J-0.684
X32.682 Y25.682 Z1.755 I-0.318 J0.684
X33.319 Y24.315 Z1.673 I0.318 J-0.684
X32.682 Y25.682 Z1.59 I-0.318 J0.684
X33.319 Y24.315 Z1.507 I0.318 J-0.684
X32.682 Y25.682 Z1.425 I-0.318 J0.684
X33.319 Y24.315 Z1.342 I0.318 J-0.684
X32.682 Y25.682 Z1.259 I-0.318 J0.684
X33.319 Y24.315 Z1.176 I0.318 J-0.684
X32.682 Y25.682 Z1.094 I-0.318 J0.684
X33.319 Y24.315 Z1.011 I0.318 J-0.684
X32.682 Y25.682 Z0.928 I-0.318 J0.684
X33.319 Y24.315 Z0.845 I0.318 J-0.684
X32.682 Y25.682 Z0.763 I-0.318 J0.684
X33.319 Y24.315 Z0.68 I0.318 J-0.684
X32.682 Y25.682 Z0.597 I-0.318 J0.684
X33.319 Y24.315 Z0.515 I0.318 J-0.684
X32.682 Y25.682 Z0.432 I-0.318 J0.684
X33.319 Y24.315 Z0.349 I0.318 J-0.684
X32.682 Y25.682 Z0.266 I-0.318 J0.684
X33.319 Y24.315 Z0.184 I0.318 J-0.684
X32.682 Y25.682 Z0.101 I-0.318 J0.684
X33.319 Y24.315 Z0.018 I0.318 J-0.684
X32.682 Y25.682 Z-0.064 I-0.318 J0.684
X33.319 Y24.315 Z-0.147 I0.318 J-0.684
X32.682 Y25.682 Z-0.23 I-0.318 J0.684
X33.319 Y24.315 Z-0.313 I0.318 J-0.684
X32.682 Y25.682 Z-0.395 I-0.318 J0.684
X33.319 Y24.315 Z-0.478 I0.318 J-0.684
X33.754 Y24.999 Z-0.508 I-0.318 J0.684
X32.246 I-0.754 J0.
X33.754 I0.754 J0.
G1 X33.788 Y25.449
X33.787 Y25.599
X33.739 Y25.741
X33.657 Y25.867
X33.551 Y25.973
X33.428 Y26.058
X33.292 Y26.122
X33.148 Y26.164
X33. Y26.184
X32.85 Y26.182
X32.701 Y26.161
X32.57 Y26.122
X32.54 Y26.111
X32.493 Y26.09
X32.454 Y26.073
X32.339 Y26.007
X32.323 Y25.996
X32.191 Y25.893
X32.171 Y25.875
X32.06 Y25.753
X32.053 Y25.744
X31.962 Y25.612
X31.928 Y25.55
X31.895 Y25.481
X31.847 Y25.35
X31.815 Y25.218
X31.799 Y25.087
X31.797 Y25.057
X31.796 Y24.955
X31.797 Y24.943
X31.81 Y24.824
X31.834 Y24.693
X31.878 Y24.561
X31.928 Y24.452
X31.94 Y24.43
X32.022 Y24.298
X32.06 Y24.245
X32.129 Y24.167
X32.191 Y24.106
X32.278 Y24.036
X32.323 Y24.004
X32.454 Y23.928
X32.586 Y23.868
X32.717 Y23.828
X32.848 Y23.806
X32.98 Y23.796
X33.111 Y23.801
X33.243 Y23.82
X33.374 Y23.855
X33.506 Y23.907
X33.637 Y23.978
X33.72 Y24.036
X33.768 Y24.073
X33.868 Y24.167
X33.9 Y24.199
X33.976 Y24.298
X34.031 Y24.375
X34.06 Y24.43
X34.121 Y24.561
X34.164 Y24.693
X34.191 Y24.824
X34.204 Y24.955
X34.201 Y25.087
X34.185 Y25.218
X34.163 Y25.313
X34.153 Y25.35
X34.101 Y25.481
X34.037 Y25.612
X34.031 Y25.622
X33.947 Y25.744
X33.9 Y25.801
X33.829 Y25.875
X33.768 Y25.927
X33.661 Y26.007
X33.637 Y26.023
X33.571 Y26.06
X33.506 Y26.094
X33.397 Y26.138
X33.243 Y26.176
X33.111 Y26.199
X32.98 Y26.204
X32.848 Y26.195
X32.717 Y26.17
X32.606 Y26.138
X32.586 Y26.131
X32.54 Y26.111
G3 X32.677 Y25.824 I0.069 J-0.143
X32.732 Y26.067 I-0.069 J0.143
G0 Z15.

M9
G53 Z0.
M30
