(1001)
(T1  D=1.587 CR=0. - ZMIN=-0.508 - FLAT END MILL)
G0 G90 G94 G17
G21
G53 G0 Z0.

(ADAPTIVE2)
M5
M9
T1
S16500 M3
G4 P4.
G55
M8
G0 X67.319 Y24.317
Z15.
Z5.
Z2.5
G3 X66.682 Y25.684 Z2.417 I-0.318 J0.684 F356.
X67.319 Y24.317 Z2.335 I0.318 J-0.684
X66.682 Y25.684 Z2.252 I-0.318 J0.684
X67.319 Y24.317 Z2.169 I0.318 J-0.684
X66.682 Y25.684 Z2.086 I-0.318 J0.684
X67.319 Y24.317 Z2.004 I0.318 J-0.684
X66.682 Y25.684 Z1.921 I-0.318 J0.684
X67.319 Y24.317 Z1.838 I0.318 J-0.684
X66.682 Y25.684 Z1.755 I-0.318 J0.684
X67.319 Y24.317 Z1.673 I0.318 J-0.684
X66.682 Y25.684 Z1.59 I-0.318 J0.684
X67.319 Y24.317 Z1.507 I0.318 J-0.684
X66.682 Y25.684 Z1.425 I-0.318 J0.684
X67.319 Y24.317 Z1.342 I0.318 J-0.684
X66.682 Y25.684 Z1.259 I-0.318 J0.684
X67.319 Y24.317 Z1.176 I0.318 J-0.684
X66.682 Y25.684 Z1.094 I-0.318 J0.684
X67.319 Y24.317 Z1.011 I0.318 J-0.684
X66.682 Y25.684 Z0.928 I-0.318 J0.684
X67.319 Y24.317 Z0.845 I0.318 J-0.684
X66.682 Y25.684 Z0.763 I-0.318 J0.684
X67.319 Y24.317 Z0.68 I0.318 J-0.684
X66.682 Y25.684 Z0.597 I-0.318 J0.684
X67.319 Y24.317 Z0.515 I0.318 J-0.684
X66.682 Y25.684 Z0.432 I-0.318 J0.684
X67.319 Y24.317 Z0.349 I0.318 J-0.684
X66.682 Y25.684 Z0.266 I-0.318 J0.684
X67.319 Y24.317 Z0.184 I0.318 J-0.684
X66.682 Y25.684 Z0.101 I-0.318 J0.684
X67.319 Y24.317 Z0.018 I0.318 J-0.684
X66.682 Y25.684 Z-0.064 I-0.318 J0.684
X67.319 Y24.317 Z-0.147 I0.318 J-0.684
X66.682 Y25.684 Z-0.23 I-0.318 J0.684
X67.319 Y24.317 Z-0.313 I0.318 J-0.684
X66.682 Y25.684 Z-0.395 I-0.318 J0.684
X67.319 Y24.317 Z-0.478 I0.318 J-0.684
X67.755 Y25.001 Z-0.508 I-0.318 J0.684
X66.247 I-0.754 J0.
X67.755 I0.754 J0.
G1 X67.788 Y25.451
X67.787 Y25.601
X67.739 Y25.743
X67.657 Y25.869
X67.552 Y25.975
X67.428 Y26.061
X67.293 Y26.124
X67.149 Y26.166
X67. Y26.186
X66.85 Y26.185
X66.702 Y26.163
X66.576 Y26.126
X66.552 Y26.118
X66.52 Y26.105
X66.494 Y26.094
X66.429 Y26.06
X66.363 Y26.023
X66.339 Y26.007
X66.232 Y25.927
X66.171 Y25.875
X66.1 Y25.801
X66.053 Y25.744
X65.969 Y25.622
X65.963 Y25.612
X65.899 Y25.481
X65.847 Y25.35
X65.837 Y25.313
X65.815 Y25.218
X65.799 Y25.087
X65.796 Y24.955
X65.809 Y24.824
X65.837 Y24.687
X65.879 Y24.561
X65.94 Y24.43
X65.969 Y24.376
X66.02 Y24.298
X66.058 Y24.249
X66.1 Y24.199
X66.132 Y24.167
X66.232 Y24.073
X66.28 Y24.036
X66.363 Y23.978
X66.494 Y23.907
X66.626 Y23.855
X66.757 Y23.82
X66.889 Y23.801
X67.02 Y23.796
X67.152 Y23.806
X67.283 Y23.829
X67.414 Y23.868
X67.546 Y23.928
X67.677 Y24.004
X67.722 Y24.036
X67.809 Y24.106
X67.871 Y24.167
X67.94 Y24.245
X67.978 Y24.298
X68.06 Y24.43
X68.072 Y24.452
X68.122 Y24.561
X68.166 Y24.693
X68.19 Y24.824
X68.203 Y24.943
X68.204 Y24.955
X68.203 Y25.058
X68.201 Y25.087
X68.185 Y25.218
X68.153 Y25.35
X68.105 Y25.481
X68.072 Y25.55
X68.038 Y25.612
X67.947 Y25.744
X67.94 Y25.753
X67.829 Y25.875
X67.809 Y25.893
X67.677 Y25.996
X67.661 Y26.007
X67.546 Y26.073
X67.414 Y26.131
X67.394 Y26.138
X67.283 Y26.17
X67.152 Y26.195
X67.02 Y26.204
X66.889 Y26.199
X66.757 Y26.18
X66.626 Y26.145
X66.603 Y26.138
X66.552 Y26.118
G3 X66.681 Y25.828 I0.064 J-0.145
X66.743 Y26.069 I-0.064 J0.145
G0 Z15.

M9
G53 Z0.
M30
